; generated by PrusaSlicer 2.2.0 on 2020-07-11 at 23:15:48 UTC

; 

; external perimeters extrusion width = 0.25mm
; perimeters extrusion width = 0.25mm
; infill extrusion width = 0.25mm
; solid infill extrusion width = 0.25mm
; top infill extrusion width = 0.25mm
; first layer extrusion width = 0.25mm

M73 P0 R256
M73 Q0 S256
M201 X1000 Y1000 Z200 E5000 ; sets maximum accelerations, mm/sec^2
M203 X200 Y200 Z12 E120 ; sets maximum feedrates, mm/sec
M204 P1250 R1250 T1250 ; sets acceleration (P, T) and retract acceleration (R), mm/sec^2
M205 X8.00 Y8.00 Z0.40 E4.50 ; sets the jerk limits, mm/sec
M205 S0 T0 ; sets the minimum extruding and travel feed rate, mm/sec
M107
M862.3 P "MK3S" ; printer model check
M862.1 P0.25 ; nozzle diameter check
M115 U3.9.0 ; tell printer latest fw version
G90 ; use absolute coordinates
M83 ; extruder relative mode
M104 S215 ; set extruder temp
M140 S60 ; set bed temp
M190 S60 ; wait for bed temp
M109 S215 ; wait for extruder temp
G28 W ; home all without mesh bed level
G80 ; mesh bed leveling
G1 Y-3.0 F1000.0 ; go outside print area
G92 E0.0
G1 X60.0 E9.0 F1000.0 ; intro line
M73 Q0 S256
M73 P0 R255
G1 X100.0 E12.5 F1000.0 ; intro line
G92 E0.0
M221 S100
G21 ; set units to millimeters
G90 ; use absolute coordinates
M83 ; use relative distances for extrusion
M900 K0.06 ; Filament gcode LA 1.5
M900 K30 ; Filament gcode LA 1.0
;BEFORE_LAYER_CHANGE
G92 E0.0
;0.05


G1 E-0.80000 F2100.00000
G1 Z0.600 F10800.000
;AFTER_LAYER_CHANGE
;0.05
G1 X25.396 Y79.232
G1 Z0.050
G1 E0.80000 F2100.00000
M204 S500
G1 F600.000
G1 X25.745 Y78.609 E0.01066
G1 X26.269 Y78.129 E0.01060
G1 X26.921 Y77.837 E0.01066
G1 X27.500 Y77.761 E0.00872
G1 X222.504 Y77.761 E2.90975
G1 X223.354 Y77.930 E0.01294
G1 X224.076 Y78.409 E0.01294
G1 X224.562 Y79.127 E0.01294
G1 X224.739 Y79.976 E0.01294
G1 X224.738 Y130.070 E0.74748
G1 X224.604 Y130.768 E0.01060
G1 X224.255 Y131.391 E0.01066
G1 X223.731 Y131.871 E0.01060
G1 X223.079 Y132.163 E0.01066
G1 X222.500 Y132.239 E0.00872
G1 X27.482 Y132.239 E2.90997
G1 X26.767 Y132.116 E0.01082
G1 X26.129 Y131.771 E0.01082
G1 X25.635 Y131.240 E0.01082
G1 X25.337 Y130.579 E0.01082
G1 X25.261 Y130.005 E0.00864
G1 X25.262 Y79.933 E0.74715
G1 X25.389 Y79.269 E0.01010
M204 S1000
G1 F8640.000
G1 X25.745 Y78.609 E-0.17314
G1 X26.269 Y78.129 E-0.16406
G1 X26.921 Y77.837 E-0.16490
G1 X27.500 Y77.761 E-0.13487
G1 X28.033 Y77.761 E-0.12304
G1 E-0.04000 F2100.00000
G1 Z0.650 F10800.000
G1 X202.625 Y80.125
G1 Z0.050
G1 E0.80000 F2100.00000
M204 S500
G1 F600.000
G1 X222.375 Y80.125 E0.29470
G1 X222.375 Y129.875 E0.74235
M73 Q0 S255
M73 P0 R254
G1 X202.625 Y129.875 E0.29470
G1 X202.625 Y80.162 E0.74179
M204 S1000
G1 F8640.000
G1 X205.916 Y80.156 E-0.76000
G1 E-0.04000 F2100.00000
G1 Z0.650 F10800.000
G1 X203.182 Y129.803
G1 Z0.050
G1 E0.80000 F2100.00000
M204 S500
G1 F600.000
G1 X202.804 Y129.425 E0.00800
G1 X202.804 Y129.086 E0.00508
G1 X203.414 Y129.696 E0.01291
G1 X203.754 Y129.696 E0.00508
G1 X202.804 Y128.746 E0.02010
G1 X202.804 Y128.407 E0.00508
G1 X204.093 Y129.696 E0.02728
G1 X204.433 Y129.696 E0.00508
G1 X202.804 Y128.067 E0.03447
G1 X202.804 Y127.728 E0.00508
G1 X204.772 Y129.696 E0.04166
G1 X205.112 Y129.696 E0.00508
G1 X202.804 Y127.388 E0.04885
G1 X202.804 Y127.049 E0.00508
G1 X205.451 Y129.696 E0.05604
G1 X205.791 Y129.696 E0.00508
G1 X202.804 Y126.709 E0.06323
G1 X202.804 Y126.370 E0.00508
G1 X206.130 Y129.696 E0.07041
G1 X206.470 Y129.696 E0.00508
G1 X202.804 Y126.030 E0.07760
G1 X202.804 Y125.691 E0.00508
G1 X206.809 Y129.696 E0.08479
G1 X207.149 Y129.696 E0.00508
G1 X202.804 Y125.351 E0.09198
G1 X202.804 Y125.012 E0.00508
G1 X207.488 Y129.696 E0.09917
G1 X207.828 Y129.696 E0.00508
G1 X202.804 Y124.672 E0.10636
G1 X202.804 Y124.333 E0.00508
G1 X208.167 Y129.696 E0.11355
G1 X208.507 Y129.696 E0.00508
G1 X202.804 Y123.993 E0.12073
G1 X202.804 Y123.654 E0.00508
G1 X208.846 Y129.696 E0.12792
G1 X209.186 Y129.696 E0.00508
G1 X202.804 Y123.314 E0.13511
G1 X202.804 Y122.975 E0.00508
G1 X209.525 Y129.696 E0.14230
G1 X209.865 Y129.696 E0.00508
G1 X202.804 Y122.635 E0.14949
G1 X202.804 Y122.296 E0.00508
G1 X210.204 Y129.696 E0.15668
G1 X210.544 Y129.696 E0.00508
G1 X202.804 Y121.956 E0.16387
G1 X202.804 Y121.617 E0.00508
G1 X210.883 Y129.696 E0.17105
G1 X211.223 Y129.696 E0.00508
G1 X202.804 Y121.277 E0.17824
G1 X202.804 Y120.938 E0.00508
G1 X211.562 Y129.696 E0.18543
G1 X211.902 Y129.696 E0.00508
G1 X202.804 Y120.598 E0.19262
G1 X202.804 Y120.259 E0.00508
G1 X212.241 Y129.696 E0.19981
G1 X212.581 Y129.696 E0.00508
G1 X202.804 Y119.919 E0.20700
G1 X202.804 Y119.580 E0.00508
G1 X212.920 Y129.696 E0.21418
G1 X213.260 Y129.696 E0.00508
G1 X202.804 Y119.240 E0.22137
G1 X202.804 Y118.901 E0.00508
G1 X213.599 Y129.696 E0.22856
G1 X213.939 Y129.696 E0.00508
G1 X202.804 Y118.561 E0.23575
G1 X202.804 Y118.222 E0.00508
G1 X214.278 Y129.696 E0.24294
G1 X214.618 Y129.696 E0.00508
G1 X202.804 Y117.882 E0.25013
G1 X202.804 Y117.543 E0.00508
G1 X214.957 Y129.696 E0.25732
G1 X215.297 Y129.696 E0.00508
G1 X202.804 Y117.203 E0.26450
G1 X202.804 Y116.864 E0.00508
G1 X215.636 Y129.696 E0.27169
G1 X215.976 Y129.696 E0.00508
G1 X202.804 Y116.524 E0.27888
G1 X202.804 Y116.184 E0.00508
G1 X216.316 Y129.696 E0.28607
G1 X216.655 Y129.696 E0.00508
G1 X202.804 Y115.845 E0.29326
G1 X202.804 Y115.505 E0.00508
G1 X216.995 Y129.696 E0.30045
G1 X217.334 Y129.696 E0.00508
G1 X202.804 Y115.166 E0.30764
G1 X202.804 Y114.826 E0.00508
G1 X217.674 Y129.696 E0.31482
G1 X218.013 Y129.696 E0.00508
G1 X202.804 Y114.487 E0.32201
G1 X202.804 Y114.147 E0.00508
G1 X218.353 Y129.696 E0.32920
M73 Q0 S254
M73 P0 R253
G1 X218.692 Y129.696 E0.00508
G1 X202.804 Y113.808 E0.33639
G1 X202.804 Y113.468 E0.00508
G1 X219.032 Y129.696 E0.34358
G1 X219.371 Y129.696 E0.00508
G1 X202.804 Y113.129 E0.35077
G1 X202.804 Y112.789 E0.00508
G1 X219.711 Y129.696 E0.35795
G1 X220.050 Y129.696 E0.00508
G1 X202.804 Y112.450 E0.36514
G1 X202.804 Y112.110 E0.00508
G1 X220.390 Y129.696 E0.37233
G1 X220.729 Y129.696 E0.00508
G1 X202.804 Y111.771 E0.37952
G1 X202.804 Y111.431 E0.00508
G1 X221.069 Y129.696 E0.38671
G1 X221.408 Y129.696 E0.00508
G1 X202.804 Y111.092 E0.39390
G1 X202.804 Y110.752 E0.00508
G1 X221.748 Y129.696 E0.40109
G1 X222.087 Y129.696 E0.00508
G1 X202.804 Y110.413 E0.40827
G1 X202.804 Y110.073 E0.00508
G1 X222.196 Y129.464 E0.41057
G1 X222.196 Y129.125 E0.00508
G1 X202.804 Y109.734 E0.41057
G1 X202.804 Y109.394 E0.00508
G1 X222.196 Y128.785 E0.41057
G1 X222.196 Y128.446 E0.00508
G1 X202.804 Y109.055 E0.41057
G1 X202.804 Y108.715 E0.00508
G1 X222.196 Y128.106 E0.41057
G1 X222.196 Y127.767 E0.00508
G1 X202.804 Y108.376 E0.41057
G1 X202.804 Y108.036 E0.00508
G1 X222.196 Y127.427 E0.41057
G1 X222.196 Y127.088 E0.00508
G1 X202.804 Y107.697 E0.41057
G1 X202.804 Y107.357 E0.00508
G1 X222.196 Y126.748 E0.41057
G1 X222.196 Y126.409 E0.00508
G1 X202.804 Y107.018 E0.41057
G1 X202.804 Y106.678 E0.00508
G1 X222.196 Y126.069 E0.41057
G1 X222.196 Y125.730 E0.00508
G1 X202.804 Y106.339 E0.41057
M73 Q1 S253
M73 P1 R252
G1 X202.804 Y105.999 E0.00508
G1 X222.196 Y125.390 E0.41057
G1 X222.196 Y125.051 E0.00508
G1 X202.804 Y105.660 E0.41057
G1 X202.804 Y105.320 E0.00508
G1 X222.196 Y124.711 E0.41057
G1 X222.196 Y124.372 E0.00508
G1 X202.804 Y104.981 E0.41057
G1 X202.804 Y104.641 E0.00508
G1 X222.196 Y124.032 E0.41057
G1 X222.196 Y123.693 E0.00508
G1 X202.804 Y104.302 E0.41057
G1 X202.804 Y103.962 E0.00508
G1 X222.196 Y123.353 E0.41057
G1 X222.196 Y123.014 E0.00508
G1 X202.804 Y103.623 E0.41057
G1 X202.804 Y103.283 E0.00508
G1 X222.196 Y122.674 E0.41057
G1 X222.196 Y122.335 E0.00508
G1 X202.804 Y102.943 E0.41057
G1 X202.804 Y102.604 E0.00508
G1 X222.196 Y121.995 E0.41057
G1 X222.196 Y121.656 E0.00508
G1 X202.804 Y102.264 E0.41057
G1 X202.804 Y101.925 E0.00508
G1 X222.196 Y121.316 E0.41057
G1 X222.196 Y120.977 E0.00508
G1 X202.804 Y101.585 E0.41057
G1 X202.804 Y101.246 E0.00508
G1 X222.196 Y120.637 E0.41057
G1 X222.196 Y120.298 E0.00508
G1 X202.804 Y100.906 E0.41057
G1 X202.804 Y100.567 E0.00508
G1 X222.196 Y119.958 E0.41057
G1 X222.196 Y119.619 E0.00508
G1 X202.804 Y100.227 E0.41057
G1 X202.804 Y99.888 E0.00508
G1 X222.196 Y119.279 E0.41057
G1 X222.196 Y118.939 E0.00508
G1 X202.804 Y99.548 E0.41057
G1 X202.804 Y99.209 E0.00508
G1 X222.196 Y118.600 E0.41057
G1 X222.196 Y118.260 E0.00508
G1 X202.804 Y98.869 E0.41057
M73 Q1 S252
M73 P1 R251
G1 X202.804 Y98.530 E0.00508
G1 X222.196 Y117.921 E0.41057
G1 X222.196 Y117.581 E0.00508
G1 X202.804 Y98.190 E0.41057
G1 X202.804 Y97.851 E0.00508
G1 X222.196 Y117.242 E0.41057
G1 X222.196 Y116.902 E0.00508
G1 X202.804 Y97.511 E0.41057
G1 X202.804 Y97.172 E0.00508
G1 X222.196 Y116.563 E0.41057
G1 X222.196 Y116.223 E0.00508
G1 X202.804 Y96.832 E0.41057
G1 X202.804 Y96.493 E0.00508
G1 X222.196 Y115.884 E0.41057
G1 X222.196 Y115.544 E0.00508
G1 X202.804 Y96.153 E0.41057
G1 X202.804 Y95.814 E0.00508
G1 X222.196 Y115.205 E0.41057
G1 X222.196 Y114.865 E0.00508
G1 X202.804 Y95.474 E0.41057
G1 X202.804 Y95.135 E0.00508
G1 X222.196 Y114.526 E0.41057
G1 X222.196 Y114.186 E0.00508
G1 X202.804 Y94.795 E0.41057
G1 X202.804 Y94.456 E0.00508
G1 X222.196 Y113.847 E0.41057
G1 X222.196 Y113.507 E0.00508
G1 X202.804 Y94.116 E0.41057
G1 X202.804 Y93.777 E0.00508
G1 X222.196 Y113.168 E0.41057
G1 X222.196 Y112.828 E0.00508
G1 X202.804 Y93.437 E0.41057
G1 X202.804 Y93.098 E0.00508
G1 X222.196 Y112.489 E0.41057
G1 X222.196 Y112.149 E0.00508
G1 X202.804 Y92.758 E0.41057
G1 X202.804 Y92.419 E0.00508
G1 X222.196 Y111.810 E0.41057
G1 X222.196 Y111.470 E0.00508
G1 X202.804 Y92.079 E0.41057
G1 X202.804 Y91.740 E0.00508
G1 X222.196 Y111.131 E0.41057
G1 X222.196 Y110.791 E0.00508
G1 X202.804 Y91.400 E0.41057
M73 Q2 S251
M73 P2 R250
G1 X202.804 Y91.061 E0.00508
G1 X222.196 Y110.452 E0.41057
G1 X222.196 Y110.112 E0.00508
G1 X202.804 Y90.721 E0.41057
G1 X202.804 Y90.381 E0.00508
G1 X222.196 Y109.773 E0.41057
G1 X222.196 Y109.433 E0.00508
G1 X202.804 Y90.042 E0.41057
G1 X202.804 Y89.702 E0.00508
G1 X222.196 Y109.094 E0.41057
G1 X222.196 Y108.754 E0.00508
G1 X202.804 Y89.363 E0.41057
G1 X202.804 Y89.023 E0.00508
G1 X222.196 Y108.415 E0.41057
G1 X222.196 Y108.075 E0.00508
G1 X202.804 Y88.684 E0.41057
G1 X202.804 Y88.344 E0.00508
G1 X222.196 Y107.736 E0.41057
G1 X222.196 Y107.396 E0.00508
G1 X202.804 Y88.005 E0.41057
G1 X202.804 Y87.665 E0.00508
G1 X222.196 Y107.057 E0.41057
G1 X222.196 Y106.717 E0.00508
G1 X202.804 Y87.326 E0.41057
G1 X202.804 Y86.986 E0.00508
G1 X222.196 Y106.377 E0.41057
G1 X222.196 Y106.038 E0.00508
G1 X202.804 Y86.647 E0.41057
G1 X202.804 Y86.307 E0.00508
G1 X222.196 Y105.698 E0.41057
G1 X222.196 Y105.359 E0.00508
G1 X202.804 Y85.968 E0.41057
G1 X202.804 Y85.628 E0.00508
G1 X222.196 Y105.019 E0.41057
G1 X222.196 Y104.680 E0.00508
G1 X202.804 Y85.289 E0.41057
G1 X202.804 Y84.949 E0.00508
G1 X222.196 Y104.340 E0.41057
G1 X222.196 Y104.001 E0.00508
G1 X202.804 Y84.610 E0.41057
G1 X202.804 Y84.270 E0.00508
G1 X222.196 Y103.661 E0.41057
G1 X222.196 Y103.322 E0.00508
G1 X202.804 Y83.931 E0.41057
M73 Q2 S249
M73 P2 R249
G1 X202.804 Y83.591 E0.00508
G1 X222.196 Y102.982 E0.41057
G1 X222.196 Y102.643 E0.00508
G1 X202.804 Y83.252 E0.41057
G1 X202.804 Y82.912 E0.00508
G1 X222.196 Y102.303 E0.41057
G1 X222.196 Y101.964 E0.00508
G1 X202.804 Y82.573 E0.41057
G1 X202.804 Y82.233 E0.00508
G1 X222.196 Y101.624 E0.41057
G1 X222.196 Y101.285 E0.00508
G1 X202.804 Y81.894 E0.41057
G1 X202.804 Y81.554 E0.00508
G1 X222.196 Y100.945 E0.41057
G1 X222.196 Y100.606 E0.00508
G1 X202.804 Y81.215 E0.41057
G1 X202.804 Y80.875 E0.00508
G1 X222.196 Y100.266 E0.41057
G1 X222.196 Y99.927 E0.00508
G1 X202.804 Y80.536 E0.41057
G1 X202.804 Y80.304 E0.00346
G1 X202.913 Y80.304 E0.00162
G1 X222.196 Y99.587 E0.40827
G1 X222.196 Y99.248 E0.00508
G1 X203.252 Y80.304 E0.40109
G1 X203.592 Y80.304 E0.00508
G1 X222.196 Y98.908 E0.39390
G1 X222.196 Y98.569 E0.00508
G1 X203.931 Y80.304 E0.38671
G1 X204.271 Y80.304 E0.00508
G1 X222.196 Y98.229 E0.37952
G1 X222.196 Y97.890 E0.00508
G1 X204.610 Y80.304 E0.37233
G1 X204.950 Y80.304 E0.00508
G1 X222.196 Y97.550 E0.36514
G1 X222.196 Y97.211 E0.00508
G1 X205.289 Y80.304 E0.35795
G1 X205.629 Y80.304 E0.00508
G1 X222.196 Y96.871 E0.35077
G1 X222.196 Y96.532 E0.00508
G1 X205.968 Y80.304 E0.34358
G1 X206.308 Y80.304 E0.00508
G1 X222.196 Y96.192 E0.33639
G1 X222.196 Y95.853 E0.00508
G1 X206.647 Y80.304 E0.32920
G1 X206.987 Y80.304 E0.00508
G1 X222.196 Y95.513 E0.32201
G1 X222.196 Y95.174 E0.00508
G1 X207.326 Y80.304 E0.31482
M73 Q2 S248
M73 P2 R248
G1 X207.666 Y80.304 E0.00508
G1 X222.196 Y94.834 E0.30764
G1 X222.196 Y94.495 E0.00508
G1 X208.005 Y80.304 E0.30045
G1 X208.345 Y80.304 E0.00508
G1 X222.196 Y94.155 E0.29326
G1 X222.196 Y93.816 E0.00508
G1 X208.684 Y80.304 E0.28607
G1 X209.024 Y80.304 E0.00508
G1 X222.196 Y93.476 E0.27888
G1 X222.196 Y93.136 E0.00508
G1 X209.364 Y80.304 E0.27169
G1 X209.703 Y80.304 E0.00508
G1 X222.196 Y92.797 E0.26450
G1 X222.196 Y92.457 E0.00508
G1 X210.043 Y80.304 E0.25732
G1 X210.382 Y80.304 E0.00508
G1 X222.196 Y92.118 E0.25013
G1 X222.196 Y91.778 E0.00508
G1 X210.722 Y80.304 E0.24294
G1 X211.061 Y80.304 E0.00508
G1 X222.196 Y91.439 E0.23575
G1 X222.196 Y91.099 E0.00508
G1 X211.401 Y80.304 E0.22856
G1 X211.740 Y80.304 E0.00508
G1 X222.196 Y90.760 E0.22137
G1 X222.196 Y90.420 E0.00508
G1 X212.080 Y80.304 E0.21418
G1 X212.419 Y80.304 E0.00508
G1 X222.196 Y90.081 E0.20700
G1 X222.196 Y89.741 E0.00508
G1 X212.759 Y80.304 E0.19981
G1 X213.098 Y80.304 E0.00508
G1 X222.196 Y89.402 E0.19262
G1 X222.196 Y89.062 E0.00508
G1 X213.438 Y80.304 E0.18543
G1 X213.777 Y80.304 E0.00508
G1 X222.196 Y88.723 E0.17824
G1 X222.196 Y88.383 E0.00508
G1 X214.117 Y80.304 E0.17105
G1 X214.456 Y80.304 E0.00508
G1 X222.196 Y88.044 E0.16387
G1 X222.196 Y87.704 E0.00508
G1 X214.796 Y80.304 E0.15668
G1 X215.135 Y80.304 E0.00508
G1 X222.196 Y87.365 E0.14949
G1 X222.196 Y87.025 E0.00508
G1 X215.475 Y80.304 E0.14230
G1 X215.814 Y80.304 E0.00508
G1 X222.196 Y86.686 E0.13511
G1 X222.196 Y86.346 E0.00508
G1 X216.154 Y80.304 E0.12792
G1 X216.493 Y80.304 E0.00508
G1 X222.196 Y86.007 E0.12073
G1 X222.196 Y85.667 E0.00508
G1 X216.833 Y80.304 E0.11355
G1 X217.172 Y80.304 E0.00508
G1 X222.196 Y85.328 E0.10636
G1 X222.196 Y84.988 E0.00508
G1 X217.512 Y80.304 E0.09917
G1 X217.851 Y80.304 E0.00508
G1 X222.196 Y84.649 E0.09198
G1 X222.196 Y84.309 E0.00508
G1 X218.191 Y80.304 E0.08479
G1 X218.530 Y80.304 E0.00508
G1 X222.196 Y83.970 E0.07760
G1 X222.196 Y83.630 E0.00508
G1 X218.870 Y80.304 E0.07041
G1 X219.209 Y80.304 E0.00508
G1 X222.196 Y83.291 E0.06323
G1 X222.196 Y82.951 E0.00508
G1 X219.549 Y80.304 E0.05604
G1 X219.888 Y80.304 E0.00508
G1 X222.196 Y82.612 E0.04885
G1 X222.196 Y82.272 E0.00508
G1 X220.228 Y80.304 E0.04166
G1 X220.567 Y80.304 E0.00508
G1 X222.196 Y81.933 E0.03447
G1 X222.196 Y81.593 E0.00508
G1 X220.907 Y80.304 E0.02728
G1 X221.246 Y80.304 E0.00508
G1 X222.196 Y81.254 E0.02010
G1 X222.196 Y80.914 E0.00508
G1 X221.586 Y80.304 E0.01291
G1 X221.925 Y80.304 E0.00508
G1 X222.303 Y80.682 E0.00800
M204 S1000
G1 F8640.000
G1 X221.925 Y80.304 E-0.12335
G1 X221.586 Y80.304 E-0.07839
G1 X222.196 Y80.914 E-0.19906
G1 X222.196 Y81.254 E-0.07839
G1 X221.336 Y80.394 E-0.28080
G1 E-0.04000 F2100.00000
G1 Z0.650 F10800.000
G1 X197.375 Y80.125
G1 Z0.050
G1 E0.80000 F2100.00000
M204 S500
G1 F600.000
G1 X197.375 Y129.875 E0.74235
G1 X177.625 Y129.875 E0.29470
G1 X177.625 Y80.125 E0.74235
G1 X197.337 Y80.125 E0.29414
M73 Q3 S247
M73 P3 R247
M204 S1000
G1 F8640.000
G1 X197.340 Y83.416 E-0.76000
G1 E-0.04000 F2100.00000
G1 Z0.650 F10800.000
G1 X178.182 Y129.803
G1 Z0.050
G1 E0.80000 F2100.00000
M204 S500
G1 F600.000
G1 X177.804 Y129.425 E0.00800
G1 X177.804 Y129.086 E0.00508
G1 X178.414 Y129.696 E0.01291
G1 X178.754 Y129.696 E0.00508
G1 X177.804 Y128.746 E0.02010
G1 X177.804 Y128.407 E0.00508
G1 X179.093 Y129.696 E0.02728
G1 X179.433 Y129.696 E0.00508
G1 X177.804 Y128.067 E0.03447
G1 X177.804 Y127.728 E0.00508
G1 X179.772 Y129.696 E0.04166
G1 X180.112 Y129.696 E0.00508
G1 X177.804 Y127.388 E0.04885
G1 X177.804 Y127.049 E0.00508
G1 X180.451 Y129.696 E0.05604
