; generated by PrusaSlicer 2.2.0 on 2020-07-12 at 18:59:54 UTC

; 

; external perimeters extrusion width = 0.25mm
; perimeters extrusion width = 0.25mm
; infill extrusion width = 0.25mm
; solid infill extrusion width = 0.25mm
; top infill extrusion width = 0.25mm
; first layer extrusion width = 0.30mm

M73 P0 R30
M73 Q0 S30
M201 X1000 Y1000 Z200 E5000 ; sets maximum accelerations, mm/sec^2
M203 X200 Y200 Z12 E120 ; sets maximum feedrates, mm/sec
M204 P1250 R1250 T1250 ; sets acceleration (P, T) and retract acceleration (R), mm/sec^2
M205 X8.00 Y8.00 Z0.40 E4.50 ; sets the jerk limits, mm/sec
M205 S0 T0 ; sets the minimum extruding and travel feed rate, mm/sec
M107
M862.3 P "MK3S" ; printer model check
M862.1 P0.25 ; nozzle diameter check
M115 U3.9.0 ; tell printer latest fw version
G90 ; use absolute coordinates
M83 ; extruder relative mode
M104 S215 ; set extruder temp
M140 S60 ; set bed temp
M190 S60 ; wait for bed temp
M109 S215 ; wait for extruder temp
G28 W ; home all without mesh bed level
G80 ; mesh bed leveling
G1 Y-3.0 F1000.0 ; go outside print area
G92 E0.0
G1 X60.0 E9.0 F1000.0 ; intro line
M73 Q0 S30
M73 P0 R30
G1 X100.0 E12.5 F1000.0 ; intro line
G92 E0.0
M221 S95
G21 ; set units to millimeters
G90 ; use absolute coordinates
M83 ; use relative distances for extrusion
M900 K0.06 ; Filament gcode LA 1.5
M900 K30 ; Filament gcode LA 1.0
;BEFORE_LAYER_CHANGE
G92 E0.0
;0.1


G1 E-0.80000 F2100.00000
G1 Z0.600 F10800.000
;AFTER_LAYER_CHANGE
;0.1
G1 X79.130 Y87.595
G1 Z0.100
G1 E0.80000 F2100.00000
M204 S500
G1 F1200.000
G1 X79.997 Y87.443 E0.01020
G1 X170.004 Y87.443 E1.04231
G1 X170.967 Y87.633 E0.01137
G1 X171.787 Y88.171 E0.01137
G1 X172.345 Y88.979 E0.01137
G1 X172.556 Y89.938 E0.01137
G1 X172.554 Y120.130 E0.34964
G1 X172.407 Y120.864 E0.00866
G1 X172.056 Y121.520 E0.00862
G1 X171.529 Y122.050 E0.00866
G1 X170.870 Y122.405 E0.00866
G1 X170.003 Y122.557 E0.01020
G1 X79.957 Y122.557 E1.04277
G1 X79.200 Y122.429 E0.00889
G1 X78.515 Y122.082 E0.00889
G1 X77.964 Y121.548 E0.00889
G1 X77.595 Y120.870 E0.00893
G1 X77.443 Y120.011 E0.01011
G1 X77.446 Y89.882 E0.34891
G1 X77.591 Y89.144 E0.00871
G1 X77.941 Y88.483 E0.00866
G1 X78.471 Y87.950 E0.00871
G1 X79.097 Y87.613 E0.00823
M204 S1000
G1 X79.228 Y87.857 F10800.000
M204 S500
G1 F1200.000
G1 X79.997 Y87.721 E0.00905
G1 X170.004 Y87.721 E1.04231
G1 X170.862 Y87.891 E0.01013
G1 X171.593 Y88.371 E0.01013
G1 X172.089 Y89.091 E0.01013
G1 X172.278 Y89.949 E0.01017
G1 X172.276 Y120.108 E0.34926
G1 X172.147 Y120.764 E0.00775
G1 X171.832 Y121.355 E0.00775
G1 X171.360 Y121.828 E0.00775
G1 X170.770 Y122.144 E0.00775
G1 X170.003 Y122.279 E0.00902
G1 X79.966 Y122.278 E1.04265
G1 X79.289 Y122.165 E0.00796
G1 X78.676 Y121.854 E0.00796
G1 X78.183 Y121.375 E0.00796
G1 X77.856 Y120.770 E0.00796
G1 X77.721 Y120.010 E0.00894
G1 X77.723 Y89.907 E0.34861
G1 X77.850 Y89.246 E0.00779
G1 X78.163 Y88.651 E0.00779
G1 X78.637 Y88.174 E0.00779
G1 X79.195 Y87.874 E0.00733
M204 S1000
G1 F8640.000
G1 X79.997 Y87.721 E-0.18864
G1 X82.472 Y87.721 E-0.57136
G1 E-0.04000 F2100.00000
G1 Z0.700 F10800.000
G1 X76.385 Y87.109
G1 Z0.100
G1 E0.80000 F2100.00000
M204 S500
G1 F1200.000
G1 X77.275 Y86.274 E0.01412
G1 X78.343 Y85.685 E0.01414
G1 X79.545 Y85.415 E0.01426
G1 X170.506 Y85.418 E1.05336
G1 X171.464 Y85.616 E0.01133
G1 X172.374 Y86.033 E0.01160
G1 X173.486 Y86.978 E0.01690
G1 X173.958 Y87.658 E0.00958
G1 X174.596 Y89.457 E0.02211
G1 X174.596 Y120.556 E0.36013
G1 X173.615 Y122.891 E0.02934
G1 X172.725 Y123.726 E0.01412
G1 X171.657 Y124.315 E0.01413
G1 X170.456 Y124.585 E0.01425
G1 X79.445 Y124.596 E1.05394
G1 X77.109 Y123.615 E0.02934
G1 X76.274 Y122.726 E0.01412
G1 X75.685 Y121.657 E0.01413
G1 X75.415 Y120.457 E0.01425
G1 X75.404 Y89.445 E0.35912
G1 X76.371 Y87.143 E0.02891
M204 S1000
G1 X76.597 Y87.292 F10800.000
M204 S500
G1 F1200.000
G1 X77.452 Y86.489 E0.01357
G1 X78.459 Y85.938 E0.01330
G1 X79.560 Y85.693 E0.01305
G1 X170.491 Y85.697 E1.05301
G1 X171.391 Y85.885 E0.01064
G1 X172.240 Y86.277 E0.01083
G1 X173.291 Y87.178 E0.01603
G1 X173.702 Y87.770 E0.00834
G1 X174.317 Y89.482 E0.02107
G1 X174.317 Y120.528 E0.35953
G1 X173.403 Y122.708 E0.02738
G1 X172.548 Y123.511 E0.01357
G1 X171.541 Y124.062 E0.01330
G1 X170.441 Y124.307 E0.01305
G1 X79.472 Y124.317 E1.05345
G1 X77.292 Y123.403 E0.02739
G1 X76.489 Y122.548 E0.01357
G1 X75.939 Y121.541 E0.01329
G1 X75.693 Y120.441 E0.01304
G1 X75.683 Y89.473 E0.35863
G1 X76.583 Y87.326 E0.02696
M204 S1000
G1 X76.810 Y87.474 F10800.000
M204 S500
G1 F1200.000
G1 X77.602 Y86.725 E0.01262
G1 X78.576 Y86.192 E0.01286
G1 X79.575 Y85.972 E0.01185
G1 X170.476 Y85.975 E1.05267
M73 Q3 S29
M73 P3 R29
G1 X171.317 Y86.154 E0.00995
G1 X172.104 Y86.521 E0.01006
G1 X173.096 Y87.377 E0.01517
G1 X173.447 Y87.882 E0.00712
G1 X174.039 Y89.506 E0.02002
G1 X174.039 Y120.500 E0.35892
G1 X173.190 Y122.526 E0.02544
G1 X172.398 Y123.275 E0.01262
G1 X171.424 Y123.808 E0.01285
G1 X170.426 Y124.028 E0.01184
G1 X79.500 Y124.039 E1.05295
G1 X77.474 Y123.190 E0.02544
G1 X76.725 Y122.398 E0.01262
G1 X76.192 Y121.425 E0.01285
G1 X75.972 Y120.426 E0.01184
G1 X75.961 Y89.501 E0.35813
G1 X76.796 Y87.508 E0.02501
M204 S1000
G1 X77.023 Y87.656 F10800.000
M204 S500
G1 F1200.000
G1 X77.780 Y86.940 E0.01207
G1 X78.691 Y86.447 E0.01200
G1 X79.590 Y86.250 E0.01066
G1 X170.461 Y86.254 E1.05232
G1 X171.242 Y86.423 E0.00925
G1 X171.968 Y86.765 E0.00929
G1 X172.900 Y87.576 E0.01431
G1 X173.192 Y87.996 E0.00592
G1 X173.760 Y89.531 E0.01896
G1 X173.760 Y120.473 E0.35831
G1 X172.977 Y122.344 E0.02349
G1 X172.220 Y123.060 E0.01206
G1 X171.309 Y123.553 E0.01200
G1 X170.411 Y123.750 E0.01065
G1 X79.528 Y123.760 E1.05246
G1 X77.656 Y122.977 E0.02349
G1 X76.940 Y122.220 E0.01206
G1 X76.447 Y121.310 E0.01199
G1 X76.250 Y120.411 E0.01065
G1 X76.240 Y89.528 E0.35764
G1 X77.008 Y87.691 E0.02307
M204 S1000
G1 X77.236 Y87.837 F10800.000
M204 S500
G1 F1200.000
G1 X77.929 Y87.176 E0.01109
G1 X78.806 Y86.701 E0.01155
G1 X79.604 Y86.529 E0.00946
G1 X170.446 Y86.532 E1.05197
G1 X171.166 Y86.691 E0.00854
G1 X171.830 Y87.008 E0.00852
G1 X172.703 Y87.774 E0.01345
G1 X172.937 Y88.111 E0.00475
G1 X173.482 Y89.557 E0.01790
G1 X173.482 Y120.445 E0.35770
G1 X172.764 Y122.163 E0.02156
G1 X172.071 Y122.824 E0.01109
G1 X171.194 Y123.299 E0.01155
G1 X170.396 Y123.471 E0.00946
G1 X79.555 Y123.482 E1.05197
G1 X77.837 Y122.764 E0.02156
G1 X77.176 Y122.071 E0.01109
G1 X76.701 Y121.195 E0.01154
G1 X76.529 Y120.397 E0.00945
G1 X76.518 Y89.556 E0.35715
G1 X77.222 Y87.872 E0.02113
M204 S1000
G1 X77.449 Y88.019 F10800.000
M204 S500
G1 F1200.000
G1 X78.107 Y87.391 E0.01053
G1 X78.919 Y86.956 E0.01067
G1 X79.619 Y86.807 E0.00828
G1 X170.430 Y86.811 E1.05163
G1 X171.060 Y86.950 E0.00747
G1 X171.692 Y87.250 E0.00810
G1 X172.506 Y87.971 E0.01259
G1 X172.684 Y88.226 E0.00360
G1 X173.203 Y89.583 E0.01682
G1 X173.203 Y120.418 E0.35708
G1 X172.551 Y121.981 E0.01962
G1 X171.893 Y122.609 E0.01053
G1 X171.081 Y123.044 E0.01066
G1 X170.382 Y123.192 E0.00828
G1 X79.583 Y123.203 E1.05148
G1 X78.019 Y122.551 E0.01962
G1 X77.391 Y121.893 E0.01053
G1 X76.956 Y121.081 E0.01066
G1 X76.808 Y120.382 E0.00827
G1 X76.797 Y89.583 E0.35666
G1 X77.435 Y88.053 E0.01919
M204 S1000
G1 X77.663 Y88.200 F10800.000
M204 S500
G1 F1200.000
G1 X78.285 Y87.606 E0.00997
G1 X79.032 Y87.212 E0.00977
G1 X79.633 Y87.086 E0.00711
G1 X170.415 Y87.089 E1.05129
G1 X170.983 Y87.218 E0.00675
G1 X171.553 Y87.492 E0.00733
G1 X172.308 Y88.168 E0.01173
G1 X172.430 Y88.343 E0.00248
G1 X172.925 Y89.609 E0.01574
G1 X172.925 Y120.390 E0.35645
G1 X172.337 Y121.800 E0.01768
G1 X171.715 Y122.394 E0.00997
G1 X170.969 Y122.788 E0.00977
G1 X170.368 Y122.914 E0.00711
G1 X79.610 Y122.925 E1.05100
G1 X78.200 Y122.337 E0.01769
G1 X77.606 Y121.715 E0.00997
G1 X77.212 Y120.969 E0.00977
G1 X77.086 Y120.368 E0.00711
G1 X77.075 Y89.611 E0.35618
M73 Q7 S28
M73 P7 R28
G1 X77.648 Y88.235 E0.01726
M204 S1000
G1 F8640.000
G1 X78.285 Y87.606 E-0.20674
G1 X79.032 Y87.212 E-0.19484
G1 X79.633 Y87.086 E-0.14182
G1 X80.571 Y87.086 E-0.21659
G1 E-0.04000 F2100.00000
G1 Z0.700 F10800.000
G1 X170.344 Y87.368
G1 Z0.100
G1 E0.80000 F2100.00000
M204 S500
G1 F1200.000
G1 X170.709 Y87.440 E0.00431
M204 S1000
G1 X171.263 Y87.661 F10800.000
M204 S500
G1 F1200.000
G1 X171.413 Y87.734 E0.00192
G1 X171.514 Y87.825 E0.00158
M204 S1000
G1 X172.056 Y88.315 F10800.000
M204 S500
G1 F1200.000
G1 X172.178 Y88.462 E0.00221
G1 X172.207 Y88.534 E0.00090
M204 S1000
G1 F8640.000
G1 X172.178 Y88.462 E-0.01793
G1 X172.056 Y88.315 E-0.04409
G1 E-0.73798 F2100.00000
G1 Z0.700 F10800.000
G1 X172.615 Y89.559
G1 Z0.100
G1 E0.80000 F2100.00000
M204 S500
G1 F1200.000
G1 X172.646 Y89.636 E0.00097
G1 X172.646 Y89.699 E0.00072
M204 S1000
G1 F8640.000
G1 X172.646 Y89.636 E-0.01440
G1 X172.615 Y89.559 E-0.01926
G1 E-0.76635 F2100.00000
G1 Z0.700 F10800.000
G1 X79.650 Y122.646
G1 Z0.100
G1 E0.80000 F2100.00000
M204 S500
G1 F1200.000
G1 X79.629 Y122.643 E0.00025
M204 S1000
G1 F8640.000
G1 X79.650 Y122.646 E-0.00500
G1 E-0.79500 F2100.00000
G1 Z0.700 F10800.000
G1 X79.674 Y87.922
G1 Z0.100
G1 E0.80000 F2100.00000
M204 S500
G1 F1200.000
G1 X79.330 Y87.993 E0.00407
G1 X78.761 Y88.294 E0.00746
G1 X78.306 Y88.739 E0.00737
G1 X77.911 Y89.693 E0.01195
G1 X77.922 Y120.326 E0.35474
G1 X77.993 Y120.670 E0.00406
G1 X78.294 Y121.239 E0.00746
G1 X78.739 Y121.694 E0.00737
G1 X79.692 Y122.089 E0.01195
G1 X170.326 Y122.078 E1.04956
G1 X170.670 Y122.007 E0.00407
G1 X171.239 Y121.706 E0.00746
G1 X171.694 Y121.261 E0.00737
G1 X172.089 Y120.308 E0.01195
G1 X172.089 Y89.738 E0.35401
M204 S1000
G1 X172.068 Y89.642 F10800.000
M204 S500
G1 F1200.000
G1 X171.709 Y88.785 E0.01075
M204 S1000
G1 X171.647 Y88.695 F10800.000
M204 S500
G1 F1200.000
G1 X171.194 Y88.276 E0.00715
M204 S1000
G1 X171.009 Y88.154 F10800.000
M204 S500
G1 F1200.000
G1 X170.740 Y88.018 E0.00349
G1 X170.549 Y87.971 E0.00228
M204 S1000
G1 X170.316 Y87.925 F10800.000
M204 S500
G1 F1200.000
G1 X79.674 Y87.922 E1.04966
M204 S1000
G1 F8640.000
G1 X82.966 Y87.922 E-0.76000
G1 E-0.04000 F2100.00000
G1 Z0.700 F10800.000
G1 X78.521 Y88.919
G1 Z0.100
G1 E0.80000 F2100.00000
M204 S500
G1 F1200.000
G1 X78.940 Y88.508 E0.00680
G1 X79.440 Y88.249 E0.00651
G1 X79.688 Y88.200 E0.00292
G1 X170.347 Y88.204 E1.04986
G1 X170.628 Y88.274 E0.00336
G1 X170.983 Y88.453 E0.00461
G1 X171.475 Y88.914 E0.00780
G1 X171.811 Y89.720 E0.01011
G1 X171.811 Y120.280 E0.35390
G1 X171.479 Y121.081 E0.01004
G1 X171.060 Y121.492 E0.00680
G1 X170.560 Y121.751 E0.00651
G1 X170.313 Y121.800 E0.00292
G1 X79.720 Y121.811 E1.04909
G1 X78.919 Y121.479 E0.01004
G1 X78.508 Y121.060 E0.00680
G1 X78.249 Y120.560 E0.00651
G1 X78.200 Y120.313 E0.00292
G1 X78.189 Y89.720 E0.35427
G1 X78.507 Y88.953 E0.00961
M204 S1000
G1 X78.738 Y89.096 F10800.000
M204 S500
G1 F1200.000
G1 X79.090 Y88.743 E0.00577
G1 X79.517 Y88.518 E0.00559
G1 X79.703 Y88.479 E0.00219
G1 X170.329 Y88.482 E1.04949
G1 X170.516 Y88.529 E0.00223
G1 X170.839 Y88.692 E0.00419
G1 X171.261 Y89.095 E0.00675
G1 X171.532 Y89.747 E0.00818
G1 X171.532 Y120.253 E0.35326
G1 X171.262 Y120.904 E0.00817
G1 X170.910 Y121.257 E0.00577
G1 X170.483 Y121.482 E0.00559
G1 X170.297 Y121.521 E0.00219
G1 X79.747 Y121.532 E1.04860
G1 X79.096 Y121.262 E0.00817
G1 X78.743 Y120.910 E0.00577
G1 X78.518 Y120.483 E0.00559
G1 X78.479 Y120.298 E0.00219
G1 X78.468 Y89.747 E0.35378
G1 X78.724 Y89.130 E0.00774
M204 S1000
G1 X79.625 Y88.775 F10800.000
M204 S500
G1 F1200.000
G1 X79.715 Y88.757 E0.00106
G1 X170.311 Y88.761 E1.04913
G1 X170.404 Y88.785 E0.00111
G1 X170.694 Y88.931 E0.00376
G1 X171.046 Y89.274 E0.00569
G1 X171.253 Y89.775 E0.00628
G1 X171.253 Y120.225 E0.35263
G1 X171.046 Y120.727 E0.00629
G1 X170.729 Y121.044 E0.00519
G1 X170.375 Y121.225 E0.00461
G1 X170.285 Y121.243 E0.00106
G1 X79.775 Y121.253 E1.04814
G1 X79.273 Y121.046 E0.00629
G1 X78.956 Y120.729 E0.00519
G1 X78.775 Y120.375 E0.00461
G1 X78.757 Y120.285 E0.00106
G1 X78.747 Y89.775 E0.35332
G1 X78.954 Y89.273 E0.00629
G1 X79.271 Y88.956 E0.00519
G1 X79.592 Y88.792 E0.00417
M204 S1000
G1 X79.704 Y89.042 F10800.000
M204 S500
G1 F1200.000
G1 X170.296 Y89.042 E1.04908
G1 X170.548 Y89.169 E0.00327
G1 X170.829 Y89.451 E0.00461
G1 X170.975 Y89.802 E0.00441
G1 X170.975 Y120.198 E0.35199
M73 Q10 S27
M73 P10 R27
G1 X170.829 Y120.549 E0.00441
G1 X170.548 Y120.831 E0.00461
G1 X170.267 Y120.964 E0.00360
G1 X79.802 Y120.975 E1.04762
G1 X79.451 Y120.829 E0.00441
G1 X79.169 Y120.548 E0.00461
G1 X79.036 Y120.267 E0.00360
G1 X79.025 Y89.802 E0.35280
G1 X79.171 Y89.451 E0.00441
G1 X79.452 Y89.169 E0.00461
G1 X79.671 Y89.059 E0.00284
M204 S1000
G1 X79.779 Y89.314 F10800.000
M204 S500
G1 F1200.000
G1 X170.221 Y89.314 E1.04734
G1 X170.369 Y89.385 E0.00190
G1 X170.613 Y89.628 E0.00399
G1 X170.696 Y89.829 E0.00252
G1 X170.696 Y120.171 E0.35136
G1 X170.613 Y120.372 E0.00252
G1 X170.369 Y120.615 E0.00399
G1 X170.221 Y120.686 E0.00190
G1 X79.829 Y120.696 E1.04676
G1 X79.628 Y120.613 E0.00252
G1 X79.385 Y120.369 E0.00399
G1 X79.314 Y120.221 E0.00190
G1 X79.304 Y89.829 E0.35194
G1 X79.387 Y89.628 E0.00252
G1 X79.631 Y89.385 E0.00399
G1 X79.745 Y89.330 E0.00147
M204 S1000
G1 X79.806 Y89.603 F10800.000
M204 S500
G1 F1200.000
G1 X79.857 Y89.582 E0.00064
G1 X170.143 Y89.582 E1.04554
G1 X170.194 Y89.603 E0.00064
G1 X170.397 Y89.806 E0.00331
G1 X170.418 Y89.857 E0.00064
G1 X170.418 Y120.143 E0.35072
G1 X170.397 Y120.194 E0.00064
G1 X170.194 Y120.397 E0.00331
G1 X170.143 Y120.418 E0.00064
G1 X79.857 Y120.418 E1.04554
G1 X79.806 Y120.397 E0.00064
G1 X79.603 Y120.194 E0.00331
G1 X79.582 Y120.143 E0.00064
G1 X79.582 Y89.857 E0.35072
G1 X79.603 Y89.806 E0.00064
G1 X79.779 Y89.630 E0.00288
M204 S1000
G1 X79.942 Y89.861 F10800.000
M204 S500
G1 F1200.000
G1 X170.058 Y89.861 E1.04357
G1 X170.139 Y89.942 E0.00134
G1 X170.139 Y120.058 E0.34875
G1 X170.058 Y120.139 E0.00134
G1 X79.942 Y120.139 E1.04357
G1 X79.861 Y120.058 E0.00134
G1 X79.861 Y89.942 E0.34875
G1 X79.916 Y89.887 E0.00090
M204 S1000
G1 X80.150 Y90.150 F10800.000
M204 S500
G1 F1200.000
G1 X169.850 Y90.150 E1.03876
G1 X169.850 Y119.850 E0.34394
G1 X80.150 Y119.850 E1.03876
G1 X80.150 Y90.188 E0.34350
M204 S1000
G1 F8640.000
G1 X83.441 Y90.186 E-0.76000
G1 E-0.04000 F2100.00000
G1 Z0.700 F10800.000
G1 X169.766 Y90.797
G1 Z0.100
G1 E0.80000 F2100.00000
M204 S500
G1 F1200.000
G1 X169.328 Y90.359 E0.00719
G1 X168.933 Y90.359 E0.00457
G1 X169.641 Y91.067 E0.01160
G1 X169.641 Y91.461 E0.00457
G1 X168.539 Y90.359 E0.01807
G1 X168.145 Y90.359 E0.00457
G1 X169.641 Y91.855 E0.02454
G1 X169.641 Y92.250 E0.00457
G1 X167.750 Y90.359 E0.03101
G1 X167.356 Y90.359 E0.00457
G1 X169.641 Y92.644 E0.03748
G1 X169.641 Y93.039 E0.00457
G1 X166.961 Y90.359 E0.04395
G1 X166.567 Y90.359 E0.00457
G1 X169.641 Y93.433 E0.05042
G1 X169.641 Y93.828 E0.00457
G1 X166.172 Y90.359 E0.05688
G1 X165.778 Y90.359 E0.00457
G1 X169.641 Y94.222 E0.06335
G1 X169.641 Y94.616 E0.00457
G1 X165.383 Y90.359 E0.06982
G1 X164.989 Y90.359 E0.00457
G1 X169.641 Y95.011 E0.07629
G1 X169.641 Y95.405 E0.00457
G1 X164.595 Y90.359 E0.08276
G1 X164.200 Y90.359 E0.00457
G1 X169.641 Y95.800 E0.08923
G1 X169.641 Y96.194 E0.00457
G1 X163.806 Y90.359 E0.09569
G1 X163.411 Y90.359 E0.00457
G1 X169.641 Y96.589 E0.10216
M73 Q13 S26
M73 P13 R26
G1 X169.641 Y96.983 E0.00457
G1 X163.017 Y90.359 E0.10863
G1 X162.622 Y90.359 E0.00457
G1 X169.641 Y97.378 E0.11510
G1 X169.641 Y97.772 E0.00457
G1 X162.228 Y90.359 E0.12157
G1 X161.834 Y90.359 E0.00457
G1 X169.641 Y98.166 E0.12804
G1 X169.641 Y98.561 E0.00457
G1 X161.439 Y90.359 E0.13450
G1 X161.045 Y90.359 E0.00457
G1 X169.641 Y98.955 E0.14097
G1 X169.641 Y99.350 E0.00457
G1 X160.650 Y90.359 E0.14744
G1 X160.256 Y90.359 E0.00457
G1 X169.641 Y99.744 E0.15391
G1 X169.641 Y100.139 E0.00457
G1 X159.861 Y90.359 E0.16038
G1 X159.467 Y90.359 E0.00457
G1 X169.641 Y100.533 E0.16685
G1 X169.641 Y100.928 E0.00457
G1 X159.072 Y90.359 E0.17332
G1 X158.678 Y90.359 E0.00457
G1 X169.641 Y101.322 E0.17978
G1 X169.641 Y101.716 E0.00457
G1 X158.284 Y90.359 E0.18625
G1 X157.889 Y90.359 E0.00457
G1 X169.641 Y102.111 E0.19272
G1 X169.641 Y102.505 E0.00457
