; generated by PrusaSlicer 2.2.0 on 2020-07-09 at 21:36:26 UTC

; 

; external perimeters extrusion width = 0.45mm
; perimeters extrusion width = 0.45mm
; infill extrusion width = 0.45mm
; solid infill extrusion width = 0.45mm
; top infill extrusion width = 0.40mm
; first layer extrusion width = 0.42mm

M73 P0 R22
M73 Q0 S22
M201 X1000 Y1000 Z200 E5000 ; sets maximum accelerations, mm/sec^2
M203 X200 Y200 Z12 E120 ; sets maximum feedrates, mm/sec
M204 P1250 R1250 T1250 ; sets acceleration (P, T) and retract acceleration (R), mm/sec^2
M205 X8.00 Y8.00 Z0.40 E4.50 ; sets the jerk limits, mm/sec
M205 S0 T0 ; sets the minimum extruding and travel feed rate, mm/sec
M107
M862.3 P "MK3S" ; printer model check
M862.1 P0.4 ; nozzle diameter check
M115 U3.9.0 ; tell printer latest fw version
G90 ; use absolute coordinates
M83 ; extruder relative mode
M104 S215 ; set extruder temp
M140 S60 ; set bed temp
M190 S60 ; wait for bed temp
M109 S215 ; wait for extruder temp
G28 W ; home all without mesh bed level
G80 ; mesh bed leveling
G1 Y-3.0 F1000.0 ; go outside print area
G92 E0.0
G1 X60.0 E9.0 F1000.0 ; intro line
M73 Q0 S22
M73 P0 R22
G1 X100.0 E12.5 F1000.0 ; intro line
G92 E0.0
M221 S100
G21 ; set units to millimeters
G90 ; use absolute coordinates
M83 ; use relative distances for extrusion
M900 K0.06 ; Filament gcode LA 1.5
M900 K30 ; Filament gcode LA 1.0
;BEFORE_LAYER_CHANGE
G92 E0.0
;0.05


G1 E-0.80000 F2100.00000
G1 Z0.600 F10800.000
;AFTER_LAYER_CHANGE
;0.05
G1 X89.094 Y77.331
G1 Z0.050
G1 E0.80000 F2100.00000
M204 S500
G1 F1200.000
G1 X89.977 Y77.182 E0.00762
G1 X160.004 Y77.181 E0.59577
G1 X160.540 Y77.234 E0.00458
G1 X161.060 Y77.388 E0.00462
G1 X161.537 Y77.638 E0.00458
G1 X161.961 Y77.976 E0.00462
G1 X162.313 Y78.389 E0.00462
G1 X162.579 Y78.862 E0.00462
G1 X162.748 Y79.373 E0.00458
G1 X162.817 Y79.911 E0.00462
G1 X162.818 Y130.058 E0.42664
G1 X162.734 Y130.686 E0.00539
G1 X162.510 Y131.282 E0.00542
G1 X162.160 Y131.810 E0.00539
G1 X161.698 Y132.249 E0.00542
G1 X160.906 Y132.669 E0.00762
G1 X160.023 Y132.818 E0.00762
G1 X89.979 Y132.818 E0.59591
G1 X89.338 Y132.740 E0.00549
G1 X88.732 Y132.517 E0.00549
G1 X88.193 Y132.163 E0.00549
G1 X87.751 Y131.698 E0.00546
G1 X87.332 Y130.910 E0.00759
G1 X87.182 Y130.031 E0.00759
G1 X87.182 Y79.971 E0.42590
G1 X87.261 Y79.334 E0.00546
G1 X87.483 Y78.732 E0.00546
G1 X87.837 Y78.193 E0.00549
G1 X88.302 Y77.751 E0.00546
G1 X89.041 Y77.359 E0.00711
M204 S1000
G1 X89.229 Y77.718 F10800.000
M204 S500
G1 F1200.000
G1 X89.985 Y77.591 E0.00652
G1 X160.004 Y77.591 E0.59570
G1 X160.909 Y77.769 E0.00785
G1 X161.681 Y78.274 E0.00785
G1 X162.206 Y79.032 E0.00785
G1 X162.408 Y79.935 E0.00788
G1 X162.409 Y130.046 E0.42633
G1 X162.337 Y130.585 E0.00462
G1 X162.145 Y131.097 E0.00466
G1 X161.842 Y131.553 E0.00466
G1 X161.444 Y131.928 E0.00466
G1 X160.768 Y132.284 E0.00650
G1 X160.015 Y132.409 E0.00650
G1 X89.985 Y132.409 E0.59580
G1 X89.438 Y132.343 E0.00469
G1 X88.917 Y132.152 E0.00472
G1 X88.453 Y131.847 E0.00472
G1 X88.072 Y131.444 E0.00472
G1 X87.718 Y130.772 E0.00647
G1 X87.591 Y130.023 E0.00647
G1 X87.591 Y79.977 E0.42577
G1 X87.659 Y79.430 E0.00469
G1 X87.851 Y78.910 E0.00472
G1 X88.155 Y78.450 E0.00469
G1 X88.556 Y78.072 E0.00469
G1 X89.176 Y77.746 E0.00596
M204 S1000
G1 F8640.000
G1 X89.985 Y77.591 E-0.19019
G1 X92.453 Y77.591 E-0.56981
G1 E-0.04000 F2100.00000
G1 Z0.650 F10800.000
G1 X90.410 Y80.410
G1 Z0.050
G1 E0.80000 F2100.00000
M204 S500
G1 F1200.000
G1 X109.590 Y80.410 E0.16318
G1 X109.590 Y129.590 E0.41841
G1 X90.410 Y129.590 E0.16318
G1 X90.410 Y80.470 E0.41790
M204 S1000
G1 F8640.000
G1 X93.701 Y80.460 E-0.76000
G1 E-0.04000 F2100.00000
G1 Z0.650 F10800.000
G1 X90.533 Y128.637
G1 Z0.050
G1 E0.80000 F2100.00000
M204 S500
G1 F1200.000
G1 X91.179 Y129.283 E0.00780
G1 X91.760 Y129.283 E0.00496
G1 X90.717 Y128.240 E0.01259
G1 X90.717 Y127.660 E0.00496
G1 X92.340 Y129.283 E0.01960
G1 X92.921 Y129.283 E0.00496
G1 X90.717 Y127.079 E0.02661
G1 X90.717 Y126.498 E0.00496
G1 X93.502 Y129.283 E0.03362
G1 X94.083 Y129.283 E0.00496
G1 X90.717 Y125.917 E0.04064
G1 X90.717 Y125.336 E0.00496
G1 X94.664 Y129.283 E0.04765
G1 X95.244 Y129.283 E0.00496
G1 X90.717 Y124.756 E0.05466
G1 X90.717 Y124.175 E0.00496
G1 X95.825 Y129.283 E0.06167
G1 X96.406 Y129.283 E0.00496
G1 X90.717 Y123.594 E0.06868
G1 X90.717 Y123.013 E0.00496
G1 X96.987 Y129.283 E0.07569
G1 X97.567 Y129.283 E0.00496
G1 X90.717 Y122.433 E0.08271
G1 X90.717 Y121.852 E0.00496
G1 X98.148 Y129.283 E0.08972
G1 X98.729 Y129.283 E0.00496
G1 X90.717 Y121.271 E0.09673
G1 X90.717 Y120.690 E0.00496
G1 X99.310 Y129.283 E0.10374
G1 X99.891 Y129.283 E0.00496
G1 X90.717 Y120.109 E0.11075
G1 X90.717 Y119.529 E0.00496
G1 X100.471 Y129.283 E0.11776
G1 X101.052 Y129.283 E0.00496
G1 X90.717 Y118.948 E0.12478
G1 X90.717 Y118.367 E0.00496
G1 X101.633 Y129.283 E0.13179
G1 X102.214 Y129.283 E0.00496
G1 X90.717 Y117.786 E0.13880
G1 X90.717 Y117.206 E0.00496
G1 X102.794 Y129.283 E0.14581
G1 X103.375 Y129.283 E0.00496
G1 X90.717 Y116.625 E0.15282
G1 X90.717 Y116.044 E0.00496
G1 X103.956 Y129.283 E0.15983
G1 X104.537 Y129.283 E0.00496
G1 X90.717 Y115.463 E0.16684
G1 X90.717 Y114.883 E0.00496
G1 X105.117 Y129.283 E0.17386
G1 X105.698 Y129.283 E0.00496
G1 X90.717 Y114.302 E0.18087
G1 X90.717 Y113.721 E0.00496
G1 X106.279 Y129.283 E0.18788
G1 X106.860 Y129.283 E0.00496
G1 X90.717 Y113.140 E0.19489
G1 X90.717 Y112.559 E0.00496
G1 X107.441 Y129.283 E0.20190
G1 X108.021 Y129.283 E0.00496
G1 X90.717 Y111.979 E0.20891
G1 X90.717 Y111.398 E0.00496
G1 X108.602 Y129.283 E0.21593
G1 X109.183 Y129.283 E0.00496
G1 X90.717 Y110.817 E0.22294
M73 Q4 S21
M73 P4 R21
G1 X90.717 Y110.236 E0.00496
G1 X109.283 Y128.802 E0.22415
G1 X109.283 Y128.222 E0.00496
G1 X90.717 Y109.656 E0.22415
G1 X90.717 Y109.075 E0.00496
G1 X109.283 Y127.641 E0.22415
G1 X109.283 Y127.060 E0.00496
G1 X90.717 Y108.494 E0.22415
G1 X90.717 Y107.913 E0.00496
G1 X109.283 Y126.479 E0.22415
G1 X109.283 Y125.899 E0.00496
G1 X90.717 Y107.332 E0.22415
G1 X90.717 Y106.752 E0.00496
G1 X109.283 Y125.318 E0.22415
G1 X109.283 Y124.737 E0.00496
G1 X90.717 Y106.171 E0.22415
G1 X90.717 Y105.590 E0.00496
G1 X109.283 Y124.156 E0.22415
G1 X109.283 Y123.575 E0.00496
G1 X90.717 Y105.009 E0.22415
G1 X90.717 Y104.429 E0.00496
G1 X109.283 Y122.995 E0.22415
G1 X109.283 Y122.414 E0.00496
G1 X90.717 Y103.848 E0.22415
G1 X90.717 Y103.267 E0.00496
G1 X109.283 Y121.833 E0.22415
G1 X109.283 Y121.252 E0.00496
G1 X90.717 Y102.686 E0.22415
G1 X90.717 Y102.105 E0.00496
G1 X109.283 Y120.672 E0.22415
G1 X109.283 Y120.091 E0.00496
G1 X90.717 Y101.525 E0.22415
G1 X90.717 Y100.944 E0.00496
G1 X109.283 Y119.510 E0.22415
G1 X109.283 Y118.929 E0.00496
G1 X90.717 Y100.363 E0.22415
G1 X90.717 Y99.782 E0.00496
G1 X109.283 Y118.349 E0.22415
G1 X109.283 Y117.768 E0.00496
G1 X90.717 Y99.202 E0.22415
G1 X90.717 Y98.621 E0.00496
G1 X109.283 Y117.187 E0.22415
G1 X109.283 Y116.606 E0.00496
G1 X90.717 Y98.040 E0.22415
G1 X90.717 Y97.459 E0.00496
G1 X109.283 Y116.025 E0.22415
G1 X109.283 Y115.445 E0.00496
G1 X90.717 Y96.878 E0.22415
G1 X90.717 Y96.298 E0.00496
G1 X109.283 Y114.864 E0.22415
G1 X109.283 Y114.283 E0.00496
G1 X90.717 Y95.717 E0.22415
G1 X90.717 Y95.136 E0.00496
G1 X109.283 Y113.702 E0.22415
G1 X109.283 Y113.122 E0.00496
G1 X90.717 Y94.555 E0.22415
G1 X90.717 Y93.975 E0.00496
G1 X109.283 Y112.541 E0.22415
G1 X109.283 Y111.960 E0.00496
G1 X90.717 Y93.394 E0.22415
G1 X90.717 Y92.813 E0.00496
G1 X109.283 Y111.379 E0.22415
G1 X109.283 Y110.798 E0.00496
G1 X90.717 Y92.232 E0.22415
G1 X90.717 Y91.652 E0.00496
G1 X109.283 Y110.218 E0.22415
G1 X109.283 Y109.637 E0.00496
G1 X90.717 Y91.071 E0.22415
G1 X90.717 Y90.490 E0.00496
G1 X109.283 Y109.056 E0.22415
G1 X109.283 Y108.475 E0.00496
G1 X90.717 Y89.909 E0.22415
G1 X90.717 Y89.328 E0.00496
G1 X109.283 Y107.895 E0.22415
G1 X109.283 Y107.314 E0.00496
G1 X90.717 Y88.748 E0.22415
G1 X90.717 Y88.167 E0.00496
G1 X109.283 Y106.733 E0.22415
G1 X109.283 Y106.152 E0.00496
G1 X90.717 Y87.586 E0.22415
G1 X90.717 Y87.005 E0.00496
G1 X109.283 Y105.571 E0.22415
G1 X109.283 Y104.991 E0.00496
G1 X90.717 Y86.425 E0.22415
G1 X90.717 Y85.844 E0.00496
G1 X109.283 Y104.410 E0.22415
G1 X109.283 Y103.829 E0.00496
G1 X90.717 Y85.263 E0.22415
M73 Q9 S20
M73 P9 R20
G1 X90.717 Y84.682 E0.00496
G1 X109.283 Y103.248 E0.22415
G1 X109.283 Y102.668 E0.00496
G1 X90.717 Y84.101 E0.22415
G1 X90.717 Y83.521 E0.00496
G1 X109.283 Y102.087 E0.22415
G1 X109.283 Y101.506 E0.00496
G1 X90.717 Y82.940 E0.22415
G1 X90.717 Y82.359 E0.00496
G1 X109.283 Y100.925 E0.22415
G1 X109.283 Y100.344 E0.00496
G1 X90.717 Y81.778 E0.22415
G1 X90.717 Y81.198 E0.00496
G1 X109.283 Y99.764 E0.22415
G1 X109.283 Y99.183 E0.00496
G1 X90.817 Y80.717 E0.22294
G1 X91.398 Y80.717 E0.00496
G1 X109.283 Y98.602 E0.21593
G1 X109.283 Y98.021 E0.00496
G1 X91.979 Y80.717 E0.20892
G1 X92.559 Y80.717 E0.00496
G1 X109.283 Y97.441 E0.20190
G1 X109.283 Y96.860 E0.00496
G1 X93.140 Y80.717 E0.19489
G1 X93.721 Y80.717 E0.00496
G1 X109.283 Y96.279 E0.18788
G1 X109.283 Y95.698 E0.00496
G1 X94.302 Y80.717 E0.18087
G1 X94.883 Y80.717 E0.00496
G1 X109.283 Y95.117 E0.17386
G1 X109.283 Y94.537 E0.00496
G1 X95.463 Y80.717 E0.16685
G1 X96.044 Y80.717 E0.00496
G1 X109.283 Y93.956 E0.15983
G1 X109.283 Y93.375 E0.00496
G1 X96.625 Y80.717 E0.15282
G1 X97.206 Y80.717 E0.00496
G1 X109.283 Y92.794 E0.14581
G1 X109.283 Y92.214 E0.00496
G1 X97.786 Y80.717 E0.13880
G1 X98.367 Y80.717 E0.00496
G1 X109.283 Y91.633 E0.13179
G1 X109.283 Y91.052 E0.00496
G1 X98.948 Y80.717 E0.12478
G1 X99.529 Y80.717 E0.00496
G1 X109.283 Y90.471 E0.11776
G1 X109.283 Y89.891 E0.00496
G1 X100.109 Y80.717 E0.11075
G1 X100.690 Y80.717 E0.00496
G1 X109.283 Y89.310 E0.10374
G1 X109.283 Y88.729 E0.00496
G1 X101.271 Y80.717 E0.09673
G1 X101.852 Y80.717 E0.00496
G1 X109.283 Y88.148 E0.08972
G1 X109.283 Y87.567 E0.00496
G1 X102.433 Y80.717 E0.08271
G1 X103.013 Y80.717 E0.00496
G1 X109.283 Y86.987 E0.07569
G1 X109.283 Y86.406 E0.00496
G1 X103.594 Y80.717 E0.06868
G1 X104.175 Y80.717 E0.00496
G1 X109.283 Y85.825 E0.06167
G1 X109.283 Y85.244 E0.00496
G1 X104.756 Y80.717 E0.05466
G1 X105.336 Y80.717 E0.00496
G1 X109.283 Y84.664 E0.04765
G1 X109.283 Y84.083 E0.00496
G1 X105.917 Y80.717 E0.04064
G1 X106.498 Y80.717 E0.00496
G1 X109.283 Y83.502 E0.03362
G1 X109.283 Y82.921 E0.00496
G1 X107.079 Y80.717 E0.02661
G1 X107.660 Y80.717 E0.00496
G1 X109.283 Y82.340 E0.01960
G1 X109.283 Y81.760 E0.00496
G1 X108.240 Y80.717 E0.01259
G1 X108.821 Y80.717 E0.00496
G1 X109.467 Y81.363 E0.00780
M204 S1000
G1 F8640.000
G1 X108.821 Y80.717 E-0.21099
G1 X108.240 Y80.717 E-0.13410
G1 X109.283 Y81.760 E-0.34050
G1 X109.283 Y82.082 E-0.07440
G1 E-0.04000 F2100.00000
G1 Z0.650 F10800.000
G1 X115.410 Y80.410
G1 Z0.050
G1 E0.80000 F2100.00000
M204 S500
G1 F1200.000
G1 X134.590 Y80.410 E0.16318
G1 X134.590 Y129.590 E0.41841
G1 X115.410 Y129.590 E0.16318
G1 X115.410 Y80.470 E0.41790
M204 S1000
G1 F8640.000
G1 X118.701 Y80.460 E-0.76000
G1 E-0.04000 F2100.00000
G1 Z0.650 F10800.000
G1 X115.533 Y128.637
G1 Z0.050
G1 E0.80000 F2100.00000
M204 S500
G1 F1200.000
G1 X116.179 Y129.283 E0.00780
G1 X116.760 Y129.283 E0.00496
G1 X115.717 Y128.240 E0.01259
G1 X115.717 Y127.660 E0.00496
G1 X117.340 Y129.283 E0.01960
G1 X117.921 Y129.283 E0.00496
G1 X115.717 Y127.079 E0.02661
G1 X115.717 Y126.498 E0.00496
G1 X118.502 Y129.283 E0.03362
G1 X119.083 Y129.283 E0.00496
G1 X115.717 Y125.917 E0.04064
G1 X115.717 Y125.336 E0.00496
G1 X119.664 Y129.283 E0.04765
G1 X120.244 Y129.283 E0.00496
G1 X115.717 Y124.756 E0.05466
G1 X115.717 Y124.175 E0.00496
G1 X120.825 Y129.283 E0.06167
G1 X121.406 Y129.283 E0.00496
G1 X115.717 Y123.594 E0.06868
G1 X115.717 Y123.013 E0.00496
G1 X121.987 Y129.283 E0.07569
G1 X122.567 Y129.283 E0.00496
G1 X115.717 Y122.433 E0.08271
G1 X115.717 Y121.852 E0.00496
G1 X123.148 Y129.283 E0.08972
G1 X123.729 Y129.283 E0.00496
G1 X115.717 Y121.271 E0.09673
G1 X115.717 Y120.690 E0.00496
G1 X124.310 Y129.283 E0.10374
G1 X124.891 Y129.283 E0.00496
G1 X115.717 Y120.109 E0.11075
G1 X115.717 Y119.529 E0.00496
G1 X125.471 Y129.283 E0.11776
G1 X126.052 Y129.283 E0.00496
G1 X115.717 Y118.948 E0.12478
G1 X115.717 Y118.367 E0.00496
G1 X126.633 Y129.283 E0.13179
G1 X127.214 Y129.283 E0.00496
G1 X115.717 Y117.786 E0.13880
G1 X115.717 Y117.206 E0.00496
G1 X127.794 Y129.283 E0.14581
G1 X128.375 Y129.283 E0.00496
G1 X115.717 Y116.625 E0.15282
G1 X115.717 Y116.044 E0.00496
G1 X128.956 Y129.283 E0.15983
G1 X129.537 Y129.283 E0.00496
G1 X115.717 Y115.463 E0.16684
G1 X115.717 Y114.883 E0.00496
G1 X130.117 Y129.283 E0.17386
G1 X130.698 Y129.283 E0.00496
G1 X115.717 Y114.302 E0.18087
G1 X115.717 Y113.721 E0.00496
G1 X131.279 Y129.283 E0.18788
G1 X131.860 Y129.283 E0.00496
G1 X115.717 Y113.140 E0.19489
G1 X115.717 Y112.559 E0.00496
G1 X132.441 Y129.283 E0.20190
M73 Q14 S19
G1 X133.021 Y129.283 E0.00496
G1 X115.717 Y111.979 E0.20891
M73 P14 R18
G1 X115.717 Y111.398 E0.00496
G1 X133.602 Y129.283 E0.21593
G1 X134.183 Y129.283 E0.00496
G1 X115.717 Y110.817 E0.22294
G1 X115.717 Y110.236 E0.00496
G1 X134.283 Y128.802 E0.22415
G1 X134.283 Y128.222 E0.00496
G1 X115.717 Y109.656 E0.22415
G1 X115.717 Y109.075 E0.00496
G1 X134.283 Y127.641 E0.22415
G1 X134.283 Y127.060 E0.00496
G1 X115.717 Y108.494 E0.22415
G1 X115.717 Y107.913 E0.00496
G1 X134.283 Y126.479 E0.22415
G1 X134.283 Y125.899 E0.00496
G1 X115.717 Y107.332 E0.22415
G1 X115.717 Y106.752 E0.00496
G1 X134.283 Y125.318 E0.22415
G1 X134.283 Y124.737 E0.00496
G1 X115.717 Y106.171 E0.22415
G1 X115.717 Y105.590 E0.00496
G1 X134.283 Y124.156 E0.22415
G1 X134.283 Y123.575 E0.00496
G1 X115.717 Y105.009 E0.22415
G1 X115.717 Y104.429 E0.00496
G1 X134.283 Y122.995 E0.22415
G1 X134.283 Y122.414 E0.00496
G1 X115.717 Y103.848 E0.22415
G1 X115.717 Y103.267 E0.00496
G1 X134.283 Y121.833 E0.22415
G1 X134.283 Y121.252 E0.00496
G1 X115.717 Y102.686 E0.22415
G1 X115.717 Y102.105 E0.00496
G1 X134.283 Y120.672 E0.22415
G1 X134.283 Y120.091 E0.00496
G1 X115.717 Y101.525 E0.22415
G1 X115.717 Y100.944 E0.00496
G1 X134.283 Y119.510 E0.22415
G1 X134.283 Y118.929 E0.00496
G1 X115.717 Y100.363 E0.22415
G1 X115.717 Y99.782 E0.00496
G1 X134.283 Y118.349 E0.22415
G1 X134.283 Y117.768 E0.00496
G1 X115.717 Y99.202 E0.22415
G1 X115.717 Y98.621 E0.00496
G1 X134.283 Y117.187 E0.22415
G1 X134.283 Y116.606 E0.00496
G1 X115.717 Y98.040 E0.22415
G1 X115.717 Y97.459 E0.00496
G1 X134.283 Y116.025 E0.22415
G1 X134.283 Y115.445 E0.00496
G1 X115.717 Y96.878 E0.22415
G1 X115.717 Y96.298 E0.00496
G1 X134.283 Y114.864 E0.22415
G1 X134.283 Y114.283 E0.00496
G1 X115.717 Y95.717 E0.22415
G1 X115.717 Y95.136 E0.00496
G1 X134.283 Y113.702 E0.22415
G1 X134.283 Y113.122 E0.00496
G1 X115.717 Y94.555 E0.22415
G1 X115.717 Y93.975 E0.00496
G1 X134.283 Y112.541 E0.22415
G1 X134.283 Y111.960 E0.00496
G1 X115.717 Y93.394 E0.22415
G1 X115.717 Y92.813 E0.00496
G1 X134.283 Y111.379 E0.22415
G1 X134.283 Y110.798 E0.00496
G1 X115.717 Y92.232 E0.22415
G1 X115.717 Y91.652 E0.00496
G1 X134.283 Y110.218 E0.22415
G1 X134.283 Y109.637 E0.00496
G1 X115.717 Y91.071 E0.22415
G1 X115.717 Y90.490 E0.00496
G1 X134.283 Y109.056 E0.22415
G1 X134.283 Y108.475 E0.00496
G1 X115.717 Y89.909 E0.22415
G1 X115.717 Y89.328 E0.00496
G1 X134.283 Y107.895 E0.22415
G1 X134.283 Y107.314 E0.00496
G1 X115.717 Y88.748 E0.22415
G1 X115.717 Y88.167 E0.00496
G1 X134.283 Y106.733 E0.22415
G1 X134.283 Y106.152 E0.00496
G1 X115.717 Y87.586 E0.22415
G1 X115.717 Y87.005 E0.00496
G1 X134.283 Y105.571 E0.22415
G1 X134.283 Y104.991 E0.00496
G1 X115.717 Y86.425 E0.22415
M73 Q18 S18
G1 X115.717 Y85.844 E0.00496
G1 X134.283 Y104.410 E0.22415
M73 P19 R17
G1 X134.283 Y103.829 E0.00496
G1 X115.717 Y85.263 E0.22415
G1 X115.717 Y84.682 E0.00496
G1 X134.283 Y103.248 E0.22415
G1 X134.283 Y102.668 E0.00496
G1 X115.717 Y84.101 E0.22415
G1 X115.717 Y83.521 E0.00496
G1 X134.283 Y102.087 E0.22415
G1 X134.283 Y101.506 E0.00496
G1 X115.717 Y82.940 E0.22415
G1 X115.717 Y82.359 E0.00496
G1 X134.283 Y100.925 E0.22415
G1 X134.283 Y100.344 E0.00496
G1 X115.717 Y81.778 E0.22415
G1 X115.717 Y81.198 E0.00496
G1 X134.283 Y99.764 E0.22415
G1 X134.283 Y99.183 E0.00496
