; generated by PrusaSlicer 2.2.0 on 2020-07-11 at 17:36:43 UTC

; 

; external perimeters extrusion width = 0.45mm
; perimeters extrusion width = 0.45mm
; infill extrusion width = 0.45mm
; solid infill extrusion width = 0.45mm
; top infill extrusion width = 0.40mm
; first layer extrusion width = 0.42mm

M73 P0 R146
M73 Q0 S146
M201 X1000 Y1000 Z200 E5000 ; sets maximum accelerations, mm/sec^2
M203 X200 Y200 Z12 E120 ; sets maximum feedrates, mm/sec
M204 P1250 R1250 T1250 ; sets acceleration (P, T) and retract acceleration (R), mm/sec^2
M205 X8.00 Y8.00 Z0.40 E4.50 ; sets the jerk limits, mm/sec
M205 S0 T0 ; sets the minimum extruding and travel feed rate, mm/sec
M107
M862.3 P "MK3S" ; printer model check
M862.1 P0.4 ; nozzle diameter check
M115 U3.9.0 ; tell printer latest fw version
G90 ; use absolute coordinates
M83 ; extruder relative mode
M104 S215 ; set extruder temp
M140 S60 ; set bed temp
M190 S60 ; wait for bed temp
M109 S215 ; wait for extruder temp
G28 W ; home all without mesh bed level
G80 ; mesh bed leveling
G1 Y-3.0 F1000.0 ; go outside print area
G92 E0.0
G1 X60.0 E9.0 F1000.0 ; intro line
M73 Q0 S146
M73 P0 R146
G1 X100.0 E12.5 F1000.0 ; intro line
G92 E0.0
M221 S100
G21 ; set units to millimeters
G90 ; use absolute coordinates
M83 ; use relative distances for extrusion
M900 K0.06 ; Filament gcode LA 1.5
M900 K30 ; Filament gcode LA 1.0
;BEFORE_LAYER_CHANGE
G92 E0.0
;0.05


G1 E-0.80000 F2100.00000
G1 Z0.600 F10800.000
;AFTER_LAYER_CHANGE
;0.05
G1 X26.175 Y77.988
G1 Z0.050
G1 E0.80000 F2100.00000
M204 S500
G1 F600.000
G1 X26.875 Y77.673 E0.01959
G1 X27.500 Y77.591 E0.01609
G1 X222.504 Y77.591 E4.97712
G1 X223.419 Y77.773 E0.02383
G1 X224.197 Y78.290 E0.02383
G1 X224.720 Y79.063 E0.02383
G1 X224.909 Y79.974 E0.02373
G1 X224.908 Y130.081 E1.27889
G1 X224.760 Y130.834 E0.01959
G1 X224.386 Y131.499 E0.01949
G1 X223.822 Y132.014 E0.01949
G1 X223.125 Y132.327 E0.01949
G1 X222.500 Y132.409 E0.01609
G1 X27.481 Y132.409 E4.97751
G1 X26.713 Y132.277 E0.01988
G1 X26.028 Y131.907 E0.01988
G1 X25.496 Y131.338 E0.01988
G1 X25.173 Y130.625 E0.01998
G1 X25.091 Y130.003 E0.01601
G1 X25.092 Y79.923 E1.27820
G1 X25.237 Y79.173 E0.01949
G1 X25.612 Y78.504 E0.01959
G1 X26.131 Y78.028 E0.01796
M204 S1000
G1 F8640.000
G1 X26.875 Y77.673 E-0.19042
G1 X27.500 Y77.591 E-0.14559
G1 X29.336 Y77.591 E-0.42399
G1 E-0.04000 F2100.00000
G1 Z0.650 F10800.000
G1 X27.910 Y80.410
G1 Z0.050
G1 E0.80000 F2100.00000
M204 S500
G1 F600.000
G1 X47.090 Y80.410 E0.48953
G1 X47.090 Y129.590 E1.25523
M73 Q0 S145
M73 P0 R145
G1 X27.910 Y129.590 E0.48953
G1 X27.910 Y80.470 E1.25370
M204 S1000
G1 F8640.000
G1 X31.201 Y80.460 E-0.76000
G1 E-0.04000 F2100.00000
G1 Z0.650 F10800.000
G1 X28.033 Y128.637
G1 Z0.050
G1 E0.80000 F2100.00000
M204 S500
G1 F600.000
G1 X28.679 Y129.283 E0.02340
G1 X29.260 Y129.283 E0.01487
G1 X28.217 Y128.240 E0.03777
G1 X28.217 Y127.660 E0.01487
G1 X29.840 Y129.283 E0.05880
G1 X30.421 Y129.283 E0.01487
G1 X28.217 Y127.079 E0.07984
G1 X28.217 Y126.498 E0.01487
G1 X31.002 Y129.283 E0.10087
G1 X31.583 Y129.283 E0.01487
G1 X28.217 Y125.917 E0.12191
G1 X28.217 Y125.336 E0.01487
G1 X32.164 Y129.283 E0.14294
G1 X32.744 Y129.283 E0.01487
G1 X28.217 Y124.756 E0.16398
G1 X28.217 Y124.175 E0.01487
G1 X33.325 Y129.283 E0.18501
G1 X33.906 Y129.283 E0.01487
G1 X28.217 Y123.594 E0.20605
G1 X28.217 Y123.013 E0.01487
G1 X34.487 Y129.283 E0.22708
G1 X35.067 Y129.283 E0.01487
G1 X28.217 Y122.433 E0.24812
G1 X28.217 Y121.852 E0.01487
G1 X35.648 Y129.283 E0.26915
G1 X36.229 Y129.283 E0.01487
G1 X28.217 Y121.271 E0.29019
G1 X28.217 Y120.690 E0.01487
G1 X36.810 Y129.283 E0.31122
G1 X37.391 Y129.283 E0.01487
G1 X28.217 Y120.109 E0.33226
G1 X28.217 Y119.529 E0.01487
G1 X37.971 Y129.283 E0.35329
G1 X38.552 Y129.283 E0.01487
G1 X28.217 Y118.948 E0.37433
G1 X28.217 Y118.367 E0.01487
G1 X39.133 Y129.283 E0.39536
G1 X39.714 Y129.283 E0.01487
G1 X28.217 Y117.786 E0.41640
G1 X28.217 Y117.206 E0.01487
G1 X40.294 Y129.283 E0.43743
G1 X40.875 Y129.283 E0.01487
G1 X28.217 Y116.625 E0.45847
G1 X28.217 Y116.044 E0.01487
G1 X41.456 Y129.283 E0.47950
G1 X42.037 Y129.283 E0.01487
G1 X28.217 Y115.463 E0.50053
G1 X28.217 Y114.883 E0.01487
G1 X42.617 Y129.283 E0.52157
G1 X43.198 Y129.283 E0.01487
G1 X28.217 Y114.302 E0.54260
G1 X28.217 Y113.721 E0.01487
G1 X43.779 Y129.283 E0.56364
G1 X44.360 Y129.283 E0.01487
G1 X28.217 Y113.140 E0.58467
G1 X28.217 Y112.559 E0.01487
G1 X44.941 Y129.283 E0.60571
G1 X45.521 Y129.283 E0.01487
G1 X28.217 Y111.979 E0.62674
G1 X28.217 Y111.398 E0.01487
G1 X46.102 Y129.283 E0.64778
G1 X46.683 Y129.283 E0.01487
G1 X28.217 Y110.817 E0.66881
G1 X28.217 Y110.236 E0.01487
G1 X46.783 Y128.802 E0.67244
G1 X46.783 Y128.222 E0.01487
G1 X28.217 Y109.656 E0.67244
G1 X28.217 Y109.075 E0.01487
G1 X46.783 Y127.641 E0.67244
M73 Q1 S144
M73 P1 R144
G1 X46.783 Y127.060 E0.01487
G1 X28.217 Y108.494 E0.67244
G1 X28.217 Y107.913 E0.01487
G1 X46.783 Y126.479 E0.67244
G1 X46.783 Y125.899 E0.01487
G1 X28.217 Y107.332 E0.67244
G1 X28.217 Y106.752 E0.01487
G1 X46.783 Y125.318 E0.67244
G1 X46.783 Y124.737 E0.01487
G1 X28.217 Y106.171 E0.67244
G1 X28.217 Y105.590 E0.01487
G1 X46.783 Y124.156 E0.67244
G1 X46.783 Y123.575 E0.01487
G1 X28.217 Y105.009 E0.67244
G1 X28.217 Y104.429 E0.01487
G1 X46.783 Y122.995 E0.67244
G1 X46.783 Y122.414 E0.01487
G1 X28.217 Y103.848 E0.67244
G1 X28.217 Y103.267 E0.01487
G1 X46.783 Y121.833 E0.67244
G1 X46.783 Y121.252 E0.01487
G1 X28.217 Y102.686 E0.67244
G1 X28.217 Y102.105 E0.01487
G1 X46.783 Y120.672 E0.67244
G1 X46.783 Y120.091 E0.01487
G1 X28.217 Y101.525 E0.67244
G1 X28.217 Y100.944 E0.01487
G1 X46.783 Y119.510 E0.67244
G1 X46.783 Y118.929 E0.01487
G1 X28.217 Y100.363 E0.67244
G1 X28.217 Y99.782 E0.01487
G1 X46.783 Y118.349 E0.67244
G1 X46.783 Y117.768 E0.01487
G1 X28.217 Y99.202 E0.67244
G1 X28.217 Y98.621 E0.01487
G1 X46.783 Y117.187 E0.67244
G1 X46.783 Y116.606 E0.01487
G1 X28.217 Y98.040 E0.67244
G1 X28.217 Y97.459 E0.01487
G1 X46.783 Y116.025 E0.67244
G1 X46.783 Y115.445 E0.01487
G1 X28.217 Y96.878 E0.67244
G1 X28.217 Y96.298 E0.01487
G1 X46.783 Y114.864 E0.67244
G1 X46.783 Y114.283 E0.01487
G1 X28.217 Y95.717 E0.67244
M73 Q2 S143
M73 P2 R143
G1 X28.217 Y95.136 E0.01487
G1 X46.783 Y113.702 E0.67244
G1 X46.783 Y113.122 E0.01487
G1 X28.217 Y94.555 E0.67244
G1 X28.217 Y93.975 E0.01487
G1 X46.783 Y112.541 E0.67244
G1 X46.783 Y111.960 E0.01487
G1 X28.217 Y93.394 E0.67244
G1 X28.217 Y92.813 E0.01487
G1 X46.783 Y111.379 E0.67244
G1 X46.783 Y110.798 E0.01487
G1 X28.217 Y92.232 E0.67244
G1 X28.217 Y91.652 E0.01487
G1 X46.783 Y110.218 E0.67244
G1 X46.783 Y109.637 E0.01487
G1 X28.217 Y91.071 E0.67244
G1 X28.217 Y90.490 E0.01487
G1 X46.783 Y109.056 E0.67244
G1 X46.783 Y108.475 E0.01487
G1 X28.217 Y89.909 E0.67244
G1 X28.217 Y89.328 E0.01487
G1 X46.783 Y107.895 E0.67244
G1 X46.783 Y107.314 E0.01487
G1 X28.217 Y88.748 E0.67244
G1 X28.217 Y88.167 E0.01487
G1 X46.783 Y106.733 E0.67244
G1 X46.783 Y106.152 E0.01487
G1 X28.217 Y87.586 E0.67244
G1 X28.217 Y87.005 E0.01487
G1 X46.783 Y105.571 E0.67244
G1 X46.783 Y104.991 E0.01487
G1 X28.217 Y86.425 E0.67244
G1 X28.217 Y85.844 E0.01487
G1 X46.783 Y104.410 E0.67244
G1 X46.783 Y103.829 E0.01487
G1 X28.217 Y85.263 E0.67244
G1 X28.217 Y84.682 E0.01487
G1 X46.783 Y103.248 E0.67244
G1 X46.783 Y102.668 E0.01487
G1 X28.217 Y84.101 E0.67244
G1 X28.217 Y83.521 E0.01487
G1 X46.783 Y102.087 E0.67244
G1 X46.783 Y101.506 E0.01487
G1 X28.217 Y82.940 E0.67244
G1 X28.217 Y82.359 E0.01487
G1 X46.783 Y100.925 E0.67244
M73 Q2 S142
M73 P2 R142
G1 X46.783 Y100.344 E0.01487
G1 X28.217 Y81.778 E0.67244
G1 X28.217 Y81.198 E0.01487
G1 X46.783 Y99.764 E0.67244
G1 X46.783 Y99.183 E0.01487
G1 X28.317 Y80.717 E0.66881
G1 X28.898 Y80.717 E0.01487
G1 X46.783 Y98.602 E0.64778
G1 X46.783 Y98.021 E0.01487
G1 X29.479 Y80.717 E0.62675
G1 X30.059 Y80.717 E0.01487
G1 X46.783 Y97.441 E0.60571
G1 X46.783 Y96.860 E0.01487
G1 X30.640 Y80.717 E0.58468
G1 X31.221 Y80.717 E0.01487
G1 X46.783 Y96.279 E0.56364
G1 X46.783 Y95.698 E0.01487
G1 X31.802 Y80.717 E0.54261
G1 X32.383 Y80.717 E0.01487
G1 X46.783 Y95.117 E0.52157
G1 X46.783 Y94.537 E0.01487
G1 X32.963 Y80.717 E0.50054
G1 X33.544 Y80.717 E0.01487
G1 X46.783 Y93.956 E0.47950
G1 X46.783 Y93.375 E0.01487
G1 X34.125 Y80.717 E0.45847
G1 X34.706 Y80.717 E0.01487
G1 X46.783 Y92.794 E0.43743
G1 X46.783 Y92.214 E0.01487
G1 X35.286 Y80.717 E0.41640
G1 X35.867 Y80.717 E0.01487
G1 X46.783 Y91.633 E0.39536
G1 X46.783 Y91.052 E0.01487
G1 X36.448 Y80.717 E0.37433
G1 X37.029 Y80.717 E0.01487
G1 X46.783 Y90.471 E0.35329
G1 X46.783 Y89.891 E0.01487
G1 X37.609 Y80.717 E0.33226
G1 X38.190 Y80.717 E0.01487
G1 X46.783 Y89.310 E0.31122
G1 X46.783 Y88.729 E0.01487
G1 X38.771 Y80.717 E0.29019
G1 X39.352 Y80.717 E0.01487
G1 X46.783 Y88.148 E0.26915
G1 X46.783 Y87.567 E0.01487
G1 X39.933 Y80.717 E0.24812
G1 X40.513 Y80.717 E0.01487
G1 X46.783 Y86.987 E0.22708
G1 X46.783 Y86.406 E0.01487
G1 X41.094 Y80.717 E0.20605
G1 X41.675 Y80.717 E0.01487
G1 X46.783 Y85.825 E0.18501
G1 X46.783 Y85.244 E0.01487
G1 X42.256 Y80.717 E0.16398
G1 X42.836 Y80.717 E0.01487
G1 X46.783 Y84.664 E0.14294
G1 X46.783 Y84.083 E0.01487
G1 X43.417 Y80.717 E0.12191
G1 X43.998 Y80.717 E0.01487
G1 X46.783 Y83.502 E0.10087
G1 X46.783 Y82.921 E0.01487
G1 X44.579 Y80.717 E0.07984
G1 X45.160 Y80.717 E0.01487
G1 X46.783 Y82.340 E0.05880
G1 X46.783 Y81.760 E0.01487
G1 X45.740 Y80.717 E0.03777
G1 X46.321 Y80.717 E0.01487
G1 X46.967 Y81.363 E0.02340
M204 S1000
G1 F8640.000
G1 X46.321 Y80.717 E-0.21099
G1 X45.740 Y80.717 E-0.13410
G1 X46.783 Y81.760 E-0.34050
G1 X46.783 Y82.082 E-0.07440
G1 E-0.04000 F2100.00000
G1 Z0.650 F10800.000
G1 X52.910 Y80.410
G1 Z0.050
G1 E0.80000 F2100.00000
M204 S500
G1 F600.000
G1 X72.090 Y80.410 E0.48953
G1 X72.090 Y129.590 E1.25523
G1 X52.910 Y129.590 E0.48953
G1 X52.910 Y80.470 E1.25370
M73 Q3 S141
M73 P3 R141
M204 S1000
G1 F8640.000
G1 X56.201 Y80.460 E-0.76000
G1 E-0.04000 F2100.00000
G1 Z0.650 F10800.000
G1 X53.033 Y128.637
G1 Z0.050
G1 E0.80000 F2100.00000
M204 S500
G1 F600.000
G1 X53.679 Y129.283 E0.02340
G1 X54.260 Y129.283 E0.01487
G1 X53.217 Y128.240 E0.03777
G1 X53.217 Y127.660 E0.01487
G1 X54.840 Y129.283 E0.05880
G1 X55.421 Y129.283 E0.01487
G1 X53.217 Y127.079 E0.07984
G1 X53.217 Y126.498 E0.01487
G1 X56.002 Y129.283 E0.10087
G1 X56.583 Y129.283 E0.01487
G1 X53.217 Y125.917 E0.12191
G1 X53.217 Y125.336 E0.01487
G1 X57.164 Y129.283 E0.14294
G1 X57.744 Y129.283 E0.01487
G1 X53.217 Y124.756 E0.16398
G1 X53.217 Y124.175 E0.01487
G1 X58.325 Y129.283 E0.18501
G1 X58.906 Y129.283 E0.01487
G1 X53.217 Y123.594 E0.20605
G1 X53.217 Y123.013 E0.01487
G1 X59.487 Y129.283 E0.22708
G1 X60.067 Y129.283 E0.01487
G1 X53.217 Y122.433 E0.24812
G1 X53.217 Y121.852 E0.01487
G1 X60.648 Y129.283 E0.26915
G1 X61.229 Y129.283 E0.01487
G1 X53.217 Y121.271 E0.29019
G1 X53.217 Y120.690 E0.01487
G1 X61.810 Y129.283 E0.31122
G1 X62.391 Y129.283 E0.01487
G1 X53.217 Y120.109 E0.33226
G1 X53.217 Y119.529 E0.01487
G1 X62.971 Y129.283 E0.35329
G1 X63.552 Y129.283 E0.01487
G1 X53.217 Y118.948 E0.37433
G1 X53.217 Y118.367 E0.01487
G1 X64.133 Y129.283 E0.39536
G1 X64.714 Y129.283 E0.01487
G1 X53.217 Y117.786 E0.41640
G1 X53.217 Y117.206 E0.01487
G1 X65.294 Y129.283 E0.43743
G1 X65.875 Y129.283 E0.01487
G1 X53.217 Y116.625 E0.45847
G1 X53.217 Y116.044 E0.01487
G1 X66.456 Y129.283 E0.47950
G1 X67.037 Y129.283 E0.01487
G1 X53.217 Y115.463 E0.50053
G1 X53.217 Y114.883 E0.01487
G1 X67.617 Y129.283 E0.52157
G1 X68.198 Y129.283 E0.01487
G1 X53.217 Y114.302 E0.54260
G1 X53.217 Y113.721 E0.01487
G1 X68.779 Y129.283 E0.56364
G1 X69.360 Y129.283 E0.01487
G1 X53.217 Y113.140 E0.58467
G1 X53.217 Y112.559 E0.01487
G1 X69.941 Y129.283 E0.60571
G1 X70.521 Y129.283 E0.01487
G1 X53.217 Y111.979 E0.62674
G1 X53.217 Y111.398 E0.01487
G1 X71.102 Y129.283 E0.64778
G1 X71.683 Y129.283 E0.01487
G1 X53.217 Y110.817 E0.66881
G1 X53.217 Y110.236 E0.01487
G1 X71.783 Y128.802 E0.67244
G1 X71.783 Y128.222 E0.01487
G1 X53.217 Y109.656 E0.67244
G1 X53.217 Y109.075 E0.01487
G1 X71.783 Y127.641 E0.67244
G1 X71.783 Y127.060 E0.01487
G1 X53.217 Y108.494 E0.67244
G1 X53.217 Y107.913 E0.01487
G1 X71.783 Y126.479 E0.67244
G1 X71.783 Y125.899 E0.01487
G1 X53.217 Y107.332 E0.67244
M73 Q4 S140
M73 P4 R140
G1 X53.217 Y106.752 E0.01487
G1 X71.783 Y125.318 E0.67244
G1 X71.783 Y124.737 E0.01487
G1 X53.217 Y106.171 E0.67244
G1 X53.217 Y105.590 E0.01487
G1 X71.783 Y124.156 E0.67244
G1 X71.783 Y123.575 E0.01487
G1 X53.217 Y105.009 E0.67244
G1 X53.217 Y104.429 E0.01487
G1 X71.783 Y122.995 E0.67244
G1 X71.783 Y122.414 E0.01487
G1 X53.217 Y103.848 E0.67244
G1 X53.217 Y103.267 E0.01487
G1 X71.783 Y121.833 E0.67244
G1 X71.783 Y121.252 E0.01487
G1 X53.217 Y102.686 E0.67244
G1 X53.217 Y102.105 E0.01487
G1 X71.783 Y120.672 E0.67244
G1 X71.783 Y120.091 E0.01487
G1 X53.217 Y101.525 E0.67244
G1 X53.217 Y100.944 E0.01487
G1 X71.783 Y119.510 E0.67244
G1 X71.783 Y118.929 E0.01487
G1 X53.217 Y100.363 E0.67244
G1 X53.217 Y99.782 E0.01487
G1 X71.783 Y118.348 E0.67244
G1 X71.783 Y117.768 E0.01487
G1 X53.217 Y99.202 E0.67244
G1 X53.217 Y98.621 E0.01487
G1 X71.783 Y117.187 E0.67244
G1 X71.783 Y116.606 E0.01487
G1 X53.217 Y98.040 E0.67244
G1 X53.217 Y97.459 E0.01487
G1 X71.783 Y116.025 E0.67244
G1 X71.783 Y115.445 E0.01487
G1 X53.217 Y96.878 E0.67244
G1 X53.217 Y96.298 E0.01487
G1 X71.783 Y114.864 E0.67244
G1 X71.783 Y114.283 E0.01487
G1 X53.217 Y95.717 E0.67244
G1 X53.217 Y95.136 E0.01487
G1 X71.783 Y113.702 E0.67244
G1 X71.783 Y113.122 E0.01487
G1 X53.217 Y94.555 E0.67244
G1 X53.217 Y93.975 E0.01487
G1 X71.783 Y112.541 E0.67244
M73 Q4 S139
M73 P4 R139
G1 X71.783 Y111.960 E0.01487
G1 X53.217 Y93.394 E0.67244
G1 X53.217 Y92.813 E0.01487
G1 X71.783 Y111.379 E0.67244
G1 X71.783 Y110.798 E0.01487
G1 X53.217 Y92.232 E0.67244
G1 X53.217 Y91.652 E0.01487
G1 X71.783 Y110.218 E0.67244
G1 X71.783 Y109.637 E0.01487
G1 X53.217 Y91.071 E0.67244
G1 X53.217 Y90.490 E0.01487
G1 X71.783 Y109.056 E0.67244
G1 X71.783 Y108.475 E0.01487
G1 X53.217 Y89.909 E0.67244
G1 X53.217 Y89.328 E0.01487
G1 X71.783 Y107.895 E0.67244
G1 X71.783 Y107.314 E0.01487
G1 X53.217 Y88.748 E0.67244
G1 X53.217 Y88.167 E0.01487
G1 X71.783 Y106.733 E0.67244
G1 X71.783 Y106.152 E0.01487
G1 X53.217 Y87.586 E0.67244
G1 X53.217 Y87.005 E0.01487
G1 X71.783 Y105.571 E0.67244
G1 X71.783 Y104.991 E0.01487
G1 X53.217 Y86.425 E0.67244
G1 X53.217 Y85.844 E0.01487
G1 X71.783 Y104.410 E0.67244
G1 X71.783 Y103.829 E0.01487
G1 X53.217 Y85.263 E0.67244
G1 X53.217 Y84.682 E0.01487
G1 X71.783 Y103.248 E0.67244
G1 X71.783 Y102.668 E0.01487
G1 X53.217 Y84.101 E0.67244
G1 X53.217 Y83.521 E0.01487
G1 X71.783 Y102.087 E0.67244
G1 X71.783 Y101.506 E0.01487
G1 X53.217 Y82.940 E0.67244
G1 X53.217 Y82.359 E0.01487
G1 X71.783 Y100.925 E0.67244
G1 X71.783 Y100.344 E0.01487
G1 X53.217 Y81.778 E0.67244
G1 X53.217 Y81.198 E0.01487
G1 X71.783 Y99.764 E0.67244
G1 X71.783 Y99.183 E0.01487
G1 X53.317 Y80.717 E0.66881
M73 Q5 S138
M73 P5 R138
G1 X53.898 Y80.717 E0.01487
G1 X71.783 Y98.602 E0.64778
G1 X71.783 Y98.021 E0.01487
G1 X54.479 Y80.717 E0.62674
G1 X55.059 Y80.717 E0.01487
G1 X71.783 Y97.441 E0.60571
G1 X71.783 Y96.860 E0.01487
G1 X55.640 Y80.717 E0.58468
G1 X56.221 Y80.717 E0.01487
G1 X71.783 Y96.279 E0.56364
G1 X71.783 Y95.698 E0.01487
G1 X56.802 Y80.717 E0.54261
G1 X57.383 Y80.717 E0.01487
G1 X71.783 Y95.117 E0.52157
G1 X71.783 Y94.537 E0.01487
G1 X57.963 Y80.717 E0.50054
G1 X58.544 Y80.717 E0.01487
G1 X71.783 Y93.956 E0.47950
G1 X71.783 Y93.375 E0.01487
G1 X59.125 Y80.717 E0.45847
G1 X59.706 Y80.717 E0.01487
G1 X71.783 Y92.794 E0.43743
G1 X71.783 Y92.214 E0.01487
G1 X60.286 Y80.717 E0.41640
G1 X60.867 Y80.717 E0.01487
G1 X71.783 Y91.633 E0.39536
G1 X71.783 Y91.052 E0.01487
G1 X61.448 Y80.717 E0.37433
G1 X62.029 Y80.717 E0.01487
G1 X71.783 Y90.471 E0.35329
G1 X71.783 Y89.891 E0.01487
G1 X62.609 Y80.717 E0.33226
G1 X63.190 Y80.717 E0.01487
G1 X71.783 Y89.310 E0.31122
G1 X71.783 Y88.729 E0.01487
G1 X63.771 Y80.717 E0.29019
G1 X64.352 Y80.717 E0.01487
G1 X71.783 Y88.148 E0.26915
G1 X71.783 Y87.567 E0.01487
G1 X64.933 Y80.717 E0.24812
G1 X65.513 Y80.717 E0.01487
