; generated by PrusaSlicer 2.2.0 on 2020-07-09 at 22:05:57 UTC

; 

; external perimeters extrusion width = 0.45mm
; perimeters extrusion width = 0.45mm
; infill extrusion width = 0.45mm
; solid infill extrusion width = 0.45mm
; top infill extrusion width = 0.40mm
; first layer extrusion width = 0.42mm

M73 P0 R39
M73 Q0 S40
M201 X1000 Y1000 Z200 E5000 ; sets maximum accelerations, mm/sec^2
M203 X200 Y200 Z12 E120 ; sets maximum feedrates, mm/sec
M204 P1250 R1250 T1250 ; sets acceleration (P, T) and retract acceleration (R), mm/sec^2
M205 X8.00 Y8.00 Z0.40 E4.50 ; sets the jerk limits, mm/sec
M205 S0 T0 ; sets the minimum extruding and travel feed rate, mm/sec
M107
M862.3 P "MK3S" ; printer model check
M862.1 P0.4 ; nozzle diameter check
M115 U3.9.0 ; tell printer latest fw version
G90 ; use absolute coordinates
M83 ; extruder relative mode
M104 S215 ; set extruder temp
M140 S60 ; set bed temp
M190 S60 ; wait for bed temp
M109 S215 ; wait for extruder temp
G28 W ; home all without mesh bed level
G80 ; mesh bed leveling
G1 Y-3.0 F1000.0 ; go outside print area
G92 E0.0
G1 X60.0 E9.0 F1000.0 ; intro line
M73 Q0 S39
M73 P0 R39
G1 X100.0 E12.5 F1000.0 ; intro line
G92 E0.0
M221 S100
G21 ; set units to millimeters
G90 ; use absolute coordinates
M83 ; use relative distances for extrusion
M900 K0.06 ; Filament gcode LA 1.5
M900 K30 ; Filament gcode LA 1.0
;BEFORE_LAYER_CHANGE
G92 E0.0
;0.07


G1 E-0.80000 F2100.00000
G1 Z0.600 F10800.000
;AFTER_LAYER_CHANGE
;0.07
G1 X89.098 Y87.339
G1 Z0.070
G1 E0.80000 F2100.00000
M204 S500
G1 F600.000
G1 X89.980 Y87.190 E0.01055
G1 X160.004 Y87.190 E0.82530
G1 X160.539 Y87.242 E0.00634
G1 X161.058 Y87.397 E0.00638
G1 X161.538 Y87.648 E0.00638
G1 X161.958 Y87.984 E0.00634
G1 X162.308 Y88.397 E0.00638
G1 X162.571 Y88.866 E0.00634
G1 X162.741 Y89.381 E0.00638
G1 X162.809 Y89.914 E0.00634
G1 X162.809 Y140.062 E0.59104
G1 X162.724 Y140.689 E0.00745
G1 X162.501 Y141.280 E0.00745
G1 X162.152 Y141.807 E0.00745
G1 X161.693 Y142.243 E0.00745
G1 X160.902 Y142.661 E0.01055
G1 X160.020 Y142.810 E0.01055
G1 X89.979 Y142.810 E0.82549
G1 X89.344 Y142.732 E0.00755
G1 X88.738 Y142.511 E0.00760
G1 X88.202 Y142.160 E0.00755
G1 X87.757 Y141.693 E0.00760
G1 X87.342 Y140.910 E0.01045
G1 X87.190 Y140.032 E0.01050
G1 X87.190 Y89.971 E0.59002
G1 X87.270 Y89.335 E0.00755
G1 X87.491 Y88.734 E0.00755
G1 X87.843 Y88.199 E0.00755
G1 X88.307 Y87.757 E0.00755
G1 X89.045 Y87.367 E0.00984
M204 S1000
G1 X89.231 Y87.722 F10800.000
M204 S500
G1 F600.000
G1 X89.985 Y87.595 E0.00901
G1 X160.004 Y87.595 E0.82524
G1 X160.908 Y87.773 E0.01086
G1 X161.679 Y88.278 E0.01086
G1 X162.203 Y89.036 E0.01086
G1 X162.404 Y89.935 E0.01086
G1 X162.405 Y140.046 E0.59061
G1 X162.332 Y140.588 E0.00644
G1 X162.141 Y141.096 E0.00640
G1 X161.838 Y141.551 E0.00644
G1 X161.440 Y141.926 E0.00644
G1 X160.764 Y142.280 E0.00899
G1 X160.015 Y142.405 E0.00895
G1 X89.985 Y142.405 E0.82538
G1 X89.434 Y142.338 E0.00653
G1 X88.914 Y142.146 E0.00653
G1 X88.452 Y141.840 E0.00653
G1 X88.074 Y141.440 E0.00649
G1 X87.722 Y140.772 E0.00890
G1 X87.595 Y140.023 E0.00895
G1 X87.595 Y89.977 E0.58984
G1 X87.663 Y89.431 E0.00649
G1 X87.854 Y88.914 E0.00649
G1 X88.160 Y88.452 E0.00653
G1 X88.560 Y88.074 E0.00649
G1 X89.178 Y87.750 E0.00822
M204 S1000
G1 F8640.000
G1 X89.985 Y87.595 E-0.18972
G1 X92.454 Y87.595 E-0.57028
G1 E-0.04000 F2100.00000
G1 Z0.670 F10800.000
G1 X90.410 Y90.410
G1 Z0.070
G1 E0.80000 F2100.00000
M204 S500
G1 F600.000
G1 X109.590 Y90.410 E0.22605
G1 X109.590 Y139.590 E0.57963
M73 Q2 S38
M73 P2 R38
G1 X90.410 Y139.590 E0.22605
G1 X90.410 Y90.470 E0.57892
M204 S1000
G1 F8640.000
G1 X93.701 Y90.460 E-0.76000
G1 E-0.04000 F2100.00000
G1 Z0.670 F10800.000
G1 X91.355 Y139.469
G1 Z0.070
G1 E0.80000 F2100.00000
M204 S500
G1 F600.000
G1 X90.714 Y138.827 E0.01074
G1 X90.714 Y138.252 E0.00682
G1 X91.748 Y139.286 E0.01734
G1 X92.324 Y139.286 E0.00682
G1 X90.714 Y137.676 E0.02699
G1 X90.714 Y137.100 E0.00682
G1 X92.900 Y139.286 E0.03665
G1 X93.476 Y139.286 E0.00682
G1 X90.714 Y136.524 E0.04630
G1 X90.714 Y135.948 E0.00682
G1 X94.052 Y139.286 E0.05595
G1 X94.628 Y139.286 E0.00682
G1 X90.714 Y135.372 E0.06560
G1 X90.714 Y134.796 E0.00682
G1 X95.204 Y139.286 E0.07525
G1 X95.780 Y139.286 E0.00682
G1 X90.714 Y134.220 E0.08490
G1 X90.714 Y133.644 E0.00682
G1 X96.356 Y139.286 E0.09456
G1 X96.931 Y139.286 E0.00682
G1 X90.714 Y133.069 E0.10421
G1 X90.714 Y132.493 E0.00682
G1 X97.507 Y139.286 E0.11386
G1 X98.083 Y139.286 E0.00682
G1 X90.714 Y131.917 E0.12351
G1 X90.714 Y131.341 E0.00682
G1 X98.659 Y139.286 E0.13316
G1 X99.235 Y139.286 E0.00682
G1 X90.714 Y130.765 E0.14282
G1 X90.714 Y130.189 E0.00682
G1 X99.811 Y139.286 E0.15247
G1 X100.387 Y139.286 E0.00682
G1 X90.714 Y129.613 E0.16212
G1 X90.714 Y129.037 E0.00682
G1 X100.963 Y139.286 E0.17177
G1 X101.539 Y139.286 E0.00682
G1 X90.714 Y128.461 E0.18142
G1 X90.714 Y127.886 E0.00682
G1 X102.114 Y139.286 E0.19108
G1 X102.690 Y139.286 E0.00682
G1 X90.714 Y127.310 E0.20073
G1 X90.714 Y126.734 E0.00682
G1 X103.266 Y139.286 E0.21038
G1 X103.842 Y139.286 E0.00682
G1 X90.714 Y126.158 E0.22003
G1 X90.714 Y125.582 E0.00682
G1 X104.418 Y139.286 E0.22968
G1 X104.994 Y139.286 E0.00682
G1 X90.714 Y125.006 E0.23933
G1 X90.714 Y124.430 E0.00682
G1 X105.570 Y139.286 E0.24899
G1 X106.146 Y139.286 E0.00682
G1 X90.714 Y123.854 E0.25864
G1 X90.714 Y123.278 E0.00682
G1 X106.722 Y139.286 E0.26829
G1 X107.297 Y139.286 E0.00682
G1 X90.714 Y122.703 E0.27794
G1 X90.714 Y122.127 E0.00682
G1 X107.873 Y139.286 E0.28759
G1 X108.449 Y139.286 E0.00682
G1 X90.714 Y121.551 E0.29725
G1 X90.714 Y120.975 E0.00682
G1 X109.025 Y139.286 E0.30690
G1 X109.286 Y139.286 E0.00309
G1 X109.286 Y138.972 E0.00373
G1 X90.714 Y120.399 E0.31127
G1 X90.714 Y119.823 E0.00682
G1 X109.286 Y138.396 E0.31127
G1 X109.286 Y137.820 E0.00682
G1 X90.714 Y119.247 E0.31127
M73 Q5 S37
G1 X90.714 Y118.671 E0.00682
M73 P5 R37
G1 X109.286 Y137.244 E0.31127
G1 X109.286 Y136.668 E0.00682
G1 X90.714 Y118.095 E0.31127
G1 X90.714 Y117.520 E0.00682
G1 X109.286 Y136.092 E0.31127
G1 X109.286 Y135.516 E0.00682
G1 X90.714 Y116.944 E0.31127
G1 X90.714 Y116.368 E0.00682
G1 X109.286 Y134.940 E0.31127
G1 X109.286 Y134.364 E0.00682
G1 X90.714 Y115.792 E0.31127
G1 X90.714 Y115.216 E0.00682
G1 X109.286 Y133.789 E0.31127
G1 X109.286 Y133.213 E0.00682
G1 X90.714 Y114.640 E0.31127
G1 X90.714 Y114.064 E0.00682
G1 X109.286 Y132.637 E0.31127
G1 X109.286 Y132.061 E0.00682
G1 X90.714 Y113.488 E0.31127
G1 X90.714 Y112.912 E0.00682
G1 X109.286 Y131.485 E0.31127
G1 X109.286 Y130.909 E0.00682
G1 X90.714 Y112.337 E0.31127
G1 X90.714 Y111.761 E0.00682
G1 X109.286 Y130.333 E0.31127
G1 X109.286 Y129.757 E0.00682
G1 X90.714 Y111.185 E0.31127
G1 X90.714 Y110.609 E0.00682
G1 X109.286 Y129.181 E0.31127
G1 X109.286 Y128.606 E0.00682
G1 X90.714 Y110.033 E0.31127
G1 X90.714 Y109.457 E0.00682
G1 X109.286 Y128.030 E0.31127
G1 X109.286 Y127.454 E0.00682
G1 X90.714 Y108.881 E0.31127
G1 X90.714 Y108.305 E0.00682
G1 X109.286 Y126.878 E0.31127
G1 X109.286 Y126.302 E0.00682
G1 X90.714 Y107.729 E0.31127
G1 X90.714 Y107.153 E0.00682
G1 X109.286 Y125.726 E0.31127
G1 X109.286 Y125.150 E0.00682
G1 X90.714 Y106.578 E0.31127
G1 X90.714 Y106.002 E0.00682
G1 X109.286 Y124.574 E0.31127
M73 Q7 S36
M73 P7 R36
G1 X109.286 Y123.998 E0.00682
G1 X90.714 Y105.426 E0.31127
G1 X90.714 Y104.850 E0.00682
G1 X109.286 Y123.423 E0.31127
G1 X109.286 Y122.847 E0.00682
G1 X90.714 Y104.274 E0.31127
G1 X90.714 Y103.698 E0.00682
G1 X109.286 Y122.271 E0.31127
G1 X109.286 Y121.695 E0.00682
G1 X90.714 Y103.122 E0.31127
G1 X90.714 Y102.546 E0.00682
G1 X109.286 Y121.119 E0.31127
G1 X109.286 Y120.543 E0.00682
G1 X90.714 Y101.970 E0.31127
G1 X90.714 Y101.395 E0.00682
G1 X109.286 Y119.967 E0.31127
G1 X109.286 Y119.391 E0.00682
G1 X90.714 Y100.819 E0.31127
G1 X90.714 Y100.243 E0.00682
G1 X109.286 Y118.815 E0.31127
G1 X109.286 Y118.239 E0.00682
G1 X90.714 Y99.667 E0.31127
G1 X90.714 Y99.091 E0.00682
G1 X109.286 Y117.664 E0.31127
G1 X109.286 Y117.088 E0.00682
G1 X90.714 Y98.515 E0.31127
G1 X90.714 Y97.939 E0.00682
G1 X109.286 Y116.512 E0.31127
G1 X109.286 Y115.936 E0.00682
G1 X90.714 Y97.363 E0.31127
G1 X90.714 Y96.787 E0.00682
G1 X109.286 Y115.360 E0.31127
G1 X109.286 Y114.784 E0.00682
G1 X90.714 Y96.212 E0.31127
G1 X90.714 Y95.636 E0.00682
G1 X109.286 Y114.208 E0.31127
G1 X109.286 Y113.632 E0.00682
G1 X90.714 Y95.060 E0.31127
G1 X90.714 Y94.484 E0.00682
G1 X109.286 Y113.056 E0.31127
G1 X109.286 Y112.481 E0.00682
G1 X90.714 Y93.908 E0.31127
G1 X90.714 Y93.332 E0.00682
G1 X109.286 Y111.905 E0.31127
G1 X109.286 Y111.329 E0.00682
G1 X90.714 Y92.756 E0.31127
M73 Q10 S35
M73 P10 R35
G1 X90.714 Y92.180 E0.00682
G1 X109.286 Y110.753 E0.31127
G1 X109.286 Y110.177 E0.00682
G1 X90.714 Y91.604 E0.31127
G1 X90.714 Y91.029 E0.00682
G1 X109.286 Y109.601 E0.31127
G1 X109.286 Y109.025 E0.00682
G1 X90.975 Y90.714 E0.30690
G1 X91.551 Y90.714 E0.00682
G1 X109.286 Y108.449 E0.29725
G1 X109.286 Y107.873 E0.00682
G1 X92.127 Y90.714 E0.28760
G1 X92.702 Y90.714 E0.00682
G1 X109.286 Y107.298 E0.27794
G1 X109.286 Y106.722 E0.00682
G1 X93.278 Y90.714 E0.26829
G1 X93.854 Y90.714 E0.00682
G1 X109.286 Y106.146 E0.25864
G1 X109.286 Y105.570 E0.00682
G1 X94.430 Y90.714 E0.24899
G1 X95.006 Y90.714 E0.00682
G1 X109.286 Y104.994 E0.23934
G1 X109.286 Y104.418 E0.00682
G1 X95.582 Y90.714 E0.22968
G1 X96.158 Y90.714 E0.00682
G1 X109.286 Y103.842 E0.22003
G1 X109.286 Y103.266 E0.00682
G1 X96.734 Y90.714 E0.21038
G1 X97.310 Y90.714 E0.00682
G1 X109.286 Y102.690 E0.20073
G1 X109.286 Y102.115 E0.00682
G1 X97.885 Y90.714 E0.19108
G1 X98.461 Y90.714 E0.00682
G1 X109.286 Y101.539 E0.18143
G1 X109.286 Y100.963 E0.00682
G1 X99.037 Y90.714 E0.17177
G1 X99.613 Y90.714 E0.00682
G1 X109.286 Y100.387 E0.16212
G1 X109.286 Y99.811 E0.00682
G1 X100.189 Y90.714 E0.15247
G1 X100.765 Y90.714 E0.00682
G1 X109.286 Y99.235 E0.14282
G1 X109.286 Y98.659 E0.00682
G1 X101.341 Y90.714 E0.13317
G1 X101.917 Y90.714 E0.00682
G1 X109.286 Y98.083 E0.12351
G1 X109.286 Y97.507 E0.00682
G1 X102.493 Y90.714 E0.11386
G1 X103.068 Y90.714 E0.00682
G1 X109.286 Y96.932 E0.10421
G1 X109.286 Y96.356 E0.00682
G1 X103.644 Y90.714 E0.09456
G1 X104.220 Y90.714 E0.00682
G1 X109.286 Y95.780 E0.08491
G1 X109.286 Y95.204 E0.00682
G1 X104.796 Y90.714 E0.07525
G1 X105.372 Y90.714 E0.00682
G1 X109.286 Y94.628 E0.06560
G1 X109.286 Y94.052 E0.00682
G1 X105.948 Y90.714 E0.05595
G1 X106.524 Y90.714 E0.00682
G1 X109.286 Y93.476 E0.04630
G1 X109.286 Y92.900 E0.00682
G1 X107.100 Y90.714 E0.03665
G1 X107.676 Y90.714 E0.00682
G1 X109.286 Y92.324 E0.02700
G1 X109.286 Y91.749 E0.00682
G1 X108.251 Y90.714 E0.01734
G1 X108.827 Y90.714 E0.00682
G1 X109.469 Y91.355 E0.01075
M204 S1000
G1 F8640.000
G1 X108.827 Y90.714 E-0.20937
G1 X108.251 Y90.714 E-0.13297
G1 X109.286 Y91.749 E-0.33792
G1 X109.286 Y92.094 E-0.07974
G1 E-0.04000 F2100.00000
G1 Z0.670 F10800.000
G1 X115.410 Y90.410
G1 Z0.070
G1 E0.80000 F2100.00000
M204 S500
G1 F600.000
G1 X134.590 Y90.410 E0.22605
G1 X134.590 Y139.590 E0.57963
G1 X115.410 Y139.590 E0.22605
M73 Q13 S34
M73 P13 R34
G1 X115.410 Y90.470 E0.57892
M204 S1000
G1 F8640.000
G1 X118.701 Y90.460 E-0.76000
G1 E-0.04000 F2100.00000
G1 Z0.670 F10800.000
G1 X116.355 Y139.469
G1 Z0.070
G1 E0.80000 F2100.00000
M204 S500
G1 F600.000
G1 X115.714 Y138.827 E0.01074
G1 X115.714 Y138.252 E0.00682
G1 X116.748 Y139.286 E0.01734
G1 X117.324 Y139.286 E0.00682
G1 X115.714 Y137.676 E0.02699
G1 X115.714 Y137.100 E0.00682
G1 X117.900 Y139.286 E0.03665
G1 X118.476 Y139.286 E0.00682
G1 X115.714 Y136.524 E0.04630
G1 X115.714 Y135.948 E0.00682
G1 X119.052 Y139.286 E0.05595
G1 X119.628 Y139.286 E0.00682
G1 X115.714 Y135.372 E0.06560
G1 X115.714 Y134.796 E0.00682
G1 X120.204 Y139.286 E0.07525
G1 X120.780 Y139.286 E0.00682
G1 X115.714 Y134.220 E0.08490
G1 X115.714 Y133.644 E0.00682
G1 X121.356 Y139.286 E0.09456
G1 X121.931 Y139.286 E0.00682
G1 X115.714 Y133.069 E0.10421
G1 X115.714 Y132.493 E0.00682
G1 X122.507 Y139.286 E0.11386
G1 X123.083 Y139.286 E0.00682
G1 X115.714 Y131.917 E0.12351
G1 X115.714 Y131.341 E0.00682
G1 X123.659 Y139.286 E0.13316
G1 X124.235 Y139.286 E0.00682
G1 X115.714 Y130.765 E0.14282
G1 X115.714 Y130.189 E0.00682
G1 X124.811 Y139.286 E0.15247
G1 X125.387 Y139.286 E0.00682
G1 X115.714 Y129.613 E0.16212
G1 X115.714 Y129.037 E0.00682
G1 X125.963 Y139.286 E0.17177
G1 X126.539 Y139.286 E0.00682
G1 X115.714 Y128.461 E0.18142
G1 X115.714 Y127.886 E0.00682
G1 X127.114 Y139.286 E0.19108
G1 X127.690 Y139.286 E0.00682
G1 X115.714 Y127.310 E0.20073
G1 X115.714 Y126.734 E0.00682
G1 X128.266 Y139.286 E0.21038
G1 X128.842 Y139.286 E0.00682
G1 X115.714 Y126.158 E0.22003
G1 X115.714 Y125.582 E0.00682
G1 X129.418 Y139.286 E0.22968
G1 X129.994 Y139.286 E0.00682
G1 X115.714 Y125.006 E0.23933
G1 X115.714 Y124.430 E0.00682
G1 X130.570 Y139.286 E0.24899
G1 X131.146 Y139.286 E0.00682
G1 X115.714 Y123.854 E0.25864
G1 X115.714 Y123.278 E0.00682
G1 X131.722 Y139.286 E0.26829
G1 X132.297 Y139.286 E0.00682
G1 X115.714 Y122.703 E0.27794
G1 X115.714 Y122.127 E0.00682
G1 X132.873 Y139.286 E0.28759
G1 X133.449 Y139.286 E0.00682
G1 X115.714 Y121.551 E0.29725
G1 X115.714 Y120.975 E0.00682
G1 X134.025 Y139.286 E0.30690
G1 X134.286 Y139.286 E0.00309
G1 X134.286 Y138.972 E0.00373
G1 X115.714 Y120.399 E0.31127
G1 X115.714 Y119.823 E0.00682
G1 X134.286 Y138.396 E0.31127
G1 X134.286 Y137.820 E0.00682
G1 X115.714 Y119.247 E0.31127
G1 X115.714 Y118.671 E0.00682
G1 X134.286 Y137.244 E0.31127
M73 Q15 S33
M73 P15 R33
G1 X134.286 Y136.668 E0.00682
G1 X115.714 Y118.095 E0.31127
G1 X115.714 Y117.520 E0.00682
G1 X134.286 Y136.092 E0.31127
G1 X134.286 Y135.516 E0.00682
G1 X115.714 Y116.944 E0.31127
G1 X115.714 Y116.368 E0.00682
G1 X134.286 Y134.940 E0.31127
G1 X134.286 Y134.364 E0.00682
G1 X115.714 Y115.792 E0.31127
G1 X115.714 Y115.216 E0.00682
G1 X134.286 Y133.789 E0.31127
G1 X134.286 Y133.213 E0.00682
G1 X115.714 Y114.640 E0.31127
G1 X115.714 Y114.064 E0.00682
G1 X134.286 Y132.637 E0.31127
G1 X134.286 Y132.061 E0.00682
G1 X115.714 Y113.488 E0.31127
G1 X115.714 Y112.912 E0.00682
G1 X134.286 Y131.485 E0.31127
G1 X134.286 Y130.909 E0.00682
G1 X115.714 Y112.337 E0.31127
G1 X115.714 Y111.761 E0.00682
G1 X134.286 Y130.333 E0.31127
G1 X134.286 Y129.757 E0.00682
G1 X115.714 Y111.185 E0.31127
G1 X115.714 Y110.609 E0.00682
G1 X134.286 Y129.181 E0.31127
G1 X134.286 Y128.606 E0.00682
G1 X115.714 Y110.033 E0.31127
G1 X115.714 Y109.457 E0.00682
G1 X134.286 Y128.030 E0.31127
G1 X134.286 Y127.454 E0.00682
G1 X115.714 Y108.881 E0.31127
G1 X115.714 Y108.305 E0.00682
G1 X134.286 Y126.878 E0.31127
G1 X134.286 Y126.302 E0.00682
G1 X115.714 Y107.729 E0.31127
G1 X115.714 Y107.153 E0.00682
G1 X134.286 Y125.726 E0.31127
G1 X134.286 Y125.150 E0.00682
G1 X115.714 Y106.578 E0.31127
G1 X115.714 Y106.002 E0.00682
G1 X134.286 Y124.574 E0.31127
G1 X134.286 Y123.998 E0.00682
G1 X115.714 Y105.426 E0.31127
M73 Q18 S32
M73 P18 R32
G1 X115.714 Y104.850 E0.00682
G1 X134.286 Y123.423 E0.31127
G1 X134.286 Y122.847 E0.00682
G1 X115.714 Y104.274 E0.31127
G1 X115.714 Y103.698 E0.00682
G1 X134.286 Y122.271 E0.31127
G1 X134.286 Y121.695 E0.00682
G1 X115.714 Y103.122 E0.31127
G1 X115.714 Y102.546 E0.00682
G1 X134.286 Y121.119 E0.31127
G1 X134.286 Y120.543 E0.00682
G1 X115.714 Y101.970 E0.31127
G1 X115.714 Y101.395 E0.00682
G1 X134.286 Y119.967 E0.31127
G1 X134.286 Y119.391 E0.00682
G1 X115.714 Y100.819 E0.31127
G1 X115.714 Y100.243 E0.00682
G1 X134.286 Y118.815 E0.31127
G1 X134.286 Y118.239 E0.00682
G1 X115.714 Y99.667 E0.31127
G1 X115.714 Y99.091 E0.00682
G1 X134.286 Y117.664 E0.31127
G1 X134.286 Y117.088 E0.00682
G1 X115.714 Y98.515 E0.31127
G1 X115.714 Y97.939 E0.00682
G1 X134.286 Y116.512 E0.31127
G1 X134.286 Y115.936 E0.00682
G1 X115.714 Y97.363 E0.31127
G1 X115.714 Y96.787 E0.00682
G1 X134.286 Y115.360 E0.31127
G1 X134.286 Y114.784 E0.00682
G1 X115.714 Y96.212 E0.31127
G1 X115.714 Y95.636 E0.00682
G1 X134.286 Y114.208 E0.31127
G1 X134.286 Y113.632 E0.00682
G1 X115.714 Y95.060 E0.31127
G1 X115.714 Y94.484 E0.00682
G1 X134.286 Y113.056 E0.31127
G1 X134.286 Y112.481 E0.00682
G1 X115.714 Y93.908 E0.31127
G1 X115.714 Y93.332 E0.00682
